!!!!SEGMENT: pl-sa--58-a-i-58--001-006_lechleitner-ferdinand-simon--vesperae-in-f-laudate-dominum.krn
!!!cenid: 17xx:416
!!!COM: Lechleitner, Ferdinand Simon
!!!COM-rismid: pe30001903
!!!CDT: ~1700-~1800
!!!CNT:
!!!OPR: Vesperae in F
!!!OTL: Laudate Dominum
!!!OMV: 006
!!!PDT: 1726
!!!AGN: Sacred; Vespers
!!!SMS-siglum: PL-SA
!!!SMS-shelfmark: 58/A I 58
!!!SMS-shelfwork: 001-006 M
!!!NIFC-rismid: 1001068282
!!!URL-scan: http://bc.bdsandomierz.pl/dlibra/publication/1347/edition/1315/content
!!!ONB-nifc: UWAGA: części Vespere: Domine ad adiuvandum, Dixit dominus, Confitebor, Beatus vir, Laudate pueri, Laudate Dominum, Magnificat
!!!AIN: 1 alto 1 bass 2 corno 1 organ 1 soprn 1 tenor 2 violn
!!!key:
**kern	**fba	**kern	**kern	**kern	**text	**kern	**text	**kern	**text	**kern	**text	**kern	**kern
*part9	*	*part8	*part7	*part6	*part6	*part5	*part5	*part4	*part4	*part3	*part3	*part2	*part1
*staff9	*	*staff8	*staff7	*staff6	*staff6	*staff5	*staff5	*staff4	*staff4	*staff3	*staff3	*staff2	*staff1
*ICklav	*	*ICstr	*ICstr	*ICvox	*	*ICvox	*	*ICvox	*	*ICvox	*	*ICww	*ICww
*Iorgan	*	*Ivioln	*Ivioln	*Ibass	*	*Itenor	*	*Ialto	*	*Isoprn	*	*Icorno	*Icorno
*I"Organo	*	*I"Violino 2do.	*I"Violino 1mo.	*I"Baſsus.	*	*I"Tenor	*	*I"Altus	*	*I"Cantus	*	*I"Lituo 2do	*I"Lituo 1mo
*I'org	*	*I'vl 2	*I'vl 1	*I'B	*	*I'T	*	*I'A	*	*I'S	*	*I'lituus 2	*I'lituus 1
*clefF4	*	*clefG2	*clefG2	*clefF4	*	*clefC4	*	*clefC3	*	*clefC1	*	*clefG2	*clefG2
*k[]	*	*k[]	*k[]	*k[]	*	*k[b-]	*	*k[b-]	*	*k[]	*	*k[]	*k[]
*C:	*	*C:	*C:	*C:	*	*C:	*	*C:	*	*C:	*	*C:	*C:
*M3/8	*	*M3/8	*M3/8	*M3/8	*	*M3/8	*	*M3/8	*	*M3/8	*	*M3/8	*
=1	=1	=1	=1	=1	=1	=1	=1	=1	=1	=1	=1	=1	=1
!LO:TX:rj:b:i:t=Laudate Dnum	!	!LO:TX:a:B:t=Andante	!LO:TX:rj:a:B:t=Andante	!	!	!	!	!LO:TX:a:t=Tut(ti)	!	!LO:TX:b:t=Tutti	!	!	!
!LO:TX:a:B:t=Andante	!	!LO:TX:b:i:t=Laudate Dominum omnes	!LO:TX:rj:b:i:t=Laudate Dominum omnes gentes.	!	!	!	!	!LO:TX:a:B:t=Andante	!	!LO:TX:a:B:t=Andante	!	!	!
!LO:TX:a:t=Tutti	!	!LO:TX:a:t=Tutti	!LO:TX:a:t=tutti	!	!	!	!	!	!	!	!	!	!
8C/L	.	8ee\L	8gg\L	8r	.	8r	.	8r	.	8r	.	4.ryy	4.ryy
8AA/	.	8cc\	8ee\	8r	.	8r	.	8r	.	8r	.	.	.
8C/J	.	8ee\J	8gg\J	8C/	Lau-	8c\	Lau-	8g\	Lau-	8ee\	Lau-	.	.
=2	=2	=2	=2	=2	=2	=2	=2	=2	=2	=2	=2	=2	=2
8G\L	.	16gg\LL	16bb\LL	(8G\L	-da-	(8.B-\L	-da-	4g\	-da-	(8.dd\L	-da-	4.ryy	4.ryy
.	.	16dd\	16gg\	.	.	.	.	.	.	.	.	.	.
8B\	.	16b\	16dd\	8B\J)	.	.	.	.	.	.	.	.	.
.	.	16g\	16b\	.	.	16c\Jk)	.	.	.	16ee\Jk)	.	.	.
8G\J	.	16b\	16dd\	8G\	-te	(16A\LL	-te	8g\	-te	(16cc\LL	-te	.	.
.	.	16dd\JJ	16gg\JJ	.	.	16B-\JJ)	.	.	.	16dd\JJ)	.	.	.
=3	=3	=3	=3	=3	=3	=3	=3	=3	=3	=3	=3	=3	=3
!	!	!LO:TX:a:t=P:problem=mixed beam	!	!	!	!	!	!	!	!	!	!	!
4c\	.	8ee\L	8ee\L	8.c\	Do-	8.c\	Do-	8.g\	Do-	8.ee\	Do-	4.ryy	4.ryy
.	.	8g/	8cc\	.	.	.	.	.	.	.	.	.	.
.	.	.	.	16c\	-mi-	16c\	-mi-	16g\	-mi-	16ee\	-mi-	.	.
8C/	.	8ee\J	8ccc\J	8c\	-num	8c\	-num	8g\	-num	8ee\	-num	.	.
=4	=4	=4	=4	=4	=4	=4	=4	=4	=4	=4	=4	=4	=4
!LO:TX:a:i:t=Solo	!	!	!	!	!	!	!	!	!	!LO:TX:a:t=1	!	!	!
8G\L	.	8dd\L	8bb\L	4.r	.	4.r	.	4.r	.	4.r	.	4.ryy	4.ryy
8B\	.	16dd\L	16bb\L	.	.	.	.	.	.	.	.	.	.
.	.	16ee\	16ccc\	.	.	.	.	.	.	.	.	.	.
8G\J	.	16cc\	16aa\	.	.	.	.	.	.	.	.	.	.
.	.	16dd\JJ	16bb\JJ	.	.	.	.	.	.	.	.	.	.
!	!	!	!LO:PB:g=original	!	!	!	!	!	!	!	!	!	!
=5	=5	=5	=5	=5	=5	=5	=5	=5	=5	=5	=5	=5	=5
8C/L	.	8ee\L	8ccc\L	8r	.	8r	.	8r	.	8r	.	4.ryy	4.ryy
8E/	.	8cc\	8gg\	8r	.	8r	.	8r	.	8r	.	.	.
*	*	*	*	*	*	*	*	*	*ij	*	*	*	*
8C/J	.	8gg\J	8ee\J	8C/	Lau-	8c\	Lau-	8g\	Lau-	8ee\	Lau-	.	.
=6	=6	=6	=6	=6	=6	=6	=6	=6	=6	=6	=6	=6	=6
!LO:TX:a:t=Tutti	!	!	!	!	!	!	!	!	!	!	!	!	!
8G\L	.	16bb\LL	16gg\LL	(8G\L	-da-	4B-\	-da-	4g\	-da-	(8.dd\L	-da-	4.ryy	4.ryy
.	.	16gg\	16dd\	.	.	.	.	.	.	.	.	.	.
8B\	.	16dd\	16b\	8B\J)	.	.	.	.	.	.	.	.	.
.	.	16b\	16g\	.	.	.	.	.	.	16ee\Jk)	.	.	.
8G\J	.	16dd\	16b\	8G\	-te	8B-\	-te	8g\	-te	(16cc\LL	-te	.	.
.	.	16gg\JJ	16dd\JJ	.	.	.	.	.	.	16dd\JJ)	.	.	.
=7	=7	=7	=7	=7	=7	=7	=7	=7	=7	=7	=7	=7	=7
8c\L	.	8ee\L	16ee\LL	8.c\	Do-	8.c\	Do-	8.g\	Do-	8.ee\	Do-	4.ryy	4.ryy
.	.	.	16dd\	.	.	.	.	.	.	.	.	.	.
8E\	6.	16ee\L	16ee\	.	.	.	.	.	.	.	.	.	.
.	.	16dd\J	16ff\	16c\	-mi-	16c\	-mi-	16g\	-mi-	16ee\	-mi-	.	.
!	!	!	!	!LO:LB:g=original	!	!	!	!	!	!	!	!	!
8C\J	.	8ee\J	16gg\	8c\	-num	8c\	-num	8g\	-num	8ee\	-num	.	.
.	.	.	16aa\JJ	.	.	.	.	.	.	.	.	.	.
*	*	*	*	*	*	*	*	*	*Xij	*	*	*	*
!	!	!LO:LB:g=original	!	!	!	!	!	!	!	!	!	!	!
=8	=8	=8	=8	=8	=8	=8	=8	=8	=8	=8	=8	=8	=8
!LO:TX:a:t=P:problem=mixed beam	!	!	!	!	!	!	!	!	!	!	!	!	!
8G\L	.	8dd\L	8bb\L	8r	.	8r	.	8r	.	8r	.	4.ryy	4.ryy
8GG/	.	8b\	8gg\	8G\	om-	8B-\	om-	8g\	om-	8dd\	om-	.	.
8G\J	.	8dd\J	8dd\J	8G\	-nes	8B-\	-nes	8g\	-nes	8dd\	-nes	.	.
=9	=9	=9	=9	=9	=9	=9	=9	=9	=9	=9	=9	=9	=9
*	*	*	*	*	*	*	*	*	*ij	*	*	*	*
8c\L	.	16cc\LL	16ee\LL	(8c\L	om-	(8c\L	om-	4g\	om-	(8ee\L	om-	4.ryy	4.ryy
.	.	16gg\	16gg\	.	.	.	.	.	.	.	.	.	.
8B\	.	16dd\	16dd\	8B\J)	.	8d\J)	.	.	.	8dd\J)	.	.	.
.	.	16gg\	16gg\	.	.	.	.	.	.	.	.	.	.
8c\J	.	16ee\	16cc\	8c\	-nes	8c\	-nes	8g\	-nes	8ee\	-nes	.	.
.	.	16gg\JJ	16gg\JJ	.	.	.	.	.	.	.	.	.	.
*	*	*	*	*	*	*	*	*	*Xij	*	*	*	*
!LO:LB:g=original	!	!	!	!	!	!	!	!	!	!LO:LB:g=original	!	!	!
=10	=10	=10	=10	=10	=10	=10	=10	=10	=10	=10	=10	=10	=10
8G\L	.	16b\LL	16b\LL	8G\	gen-	8B-\	gen-	8g\	gen-	8dd\	gen-	4.ryy	4.ryy
.	.	16gg\	16gg\	.	.	.	.	.	.	.	.	.	.
8B\	.	16dd\	16dd\	8B\	-tes	8G/	-tes	8g\	-tes	8bn,<\	-tes	.	.
.	.	16gg\	16gg\	.	.	.	.	.	.	.	.	.	.
!	!	!	!	!	!	!LO:LB:g=original	!	!	!	!	!	!	!
8G\J	.	16b\	16b\	8G\	lau-	8B-\	lau-	8g\	lau-	8dd\	lau-	.	.
.	.	16gg\JJ	16gg\JJ	.	.	.	.	.	.	.	.	.	.
!	!	!	!	!	!	!	!	!LO:PB:g=original	!	!	!	!	!
=11	=11	=11	=11	=11	=11	=11	=11	=11	=11	=11	=11	=11	=11
8c\L	.	16ee\LL	16ee\LL	(8c\L	-da-	(8c\L	-da-	4g\	-da-	(8ee\L	-da-	4.ryy	4.ryy
.	.	16gg\	16gg\	.	.	.	.	.	.	.	.	.	.
8B\	6	16dd\	16dd\	8B\J)	.	8d\J)	.	.	.	8dd\J)	.	.	.
.	.	16gg\	16gg\	.	.	.	.	.	.	.	.	.	.
8c\J	.	16cc\	16cc\	8c\	-te	8B-\	-te	8g\	-te	8ee\	-te	.	.
.	.	16gg\JJ	16gg\JJ	.	.	.	.	.	.	.	.	.	.
=12	=12	=12	=12	=12	=12	=12	=12	=12	=12	=12	=12	=12	=12
8G\L	.	16b\LL	16b\LL	8G\	e-	8.B-\	e-	8.g\	e-	8.dd\	e-	4.ryy	4.ryy
.	.	16gg\	16gg\	.	.	.	.	.	.	.	.	.	.
8F\	4 2	16dd\	16dd\	8F\	-um	.	.	.	.	.	.	.	.
.	.	16gg\	16gg\	.	.	16B-\	-um	16g\	-um	16dd\	-um	.	.
8E\J	6	16g\	16ee\	8E\	om-	8c\	om-	8g\	om-	8ee\	om-	.	.
.	.	16cc\JJ	16gg\JJ	.	.	.	.	.	.	.	.	.	.
!	!	!	!LO:LB:g=original	!	!	!	!	!	!	!	!	!	!
=13	=13	=13	=13	=13	=13	=13	=13	=13	=13	=13	=13	=13	=13
8F\L	6	16ff\LL	16aa\LL	8F\	-nes	8c\	-nes	8a\	-nes	8dd\	-nes	4.ryy	4.ryy
.	.	16dd\	16ff\	.	.	.	.	.	.	.	.	.	.
!LO:TX:a:t=P:problem=mixed beam	!	!	!	!	!	!	!	!	!	!	!	!	!
8G\	.	16b\	16dd\	8G\	po-	8.c\	po-	8d\	po-	8.dd\	po-	.	.
!	!	!LO:TX:a:t=P:problem=mixed beam	!	!	!	!	!	!	!	!	!	!	!
.	.	16g\	16b\	.	.	.	.	.	.	.	.	.	.
8GG/J	4	16d/	16g\	8GG/	-pu-	.	.	8g\	-pu-	.	.	.	.
.	3	16dd\JJ	16gg\JJ	.	.	16B-\	-pu-	.	.	16cc\	-pu-	.	.
=14	=14	=14	=14	=14	=14	=14	=14	=14	=14	=14	=14	=14	=14
!LO:TX:a:t=P:problem=mixed beam	!	!	!	!	!	!	!	!	!	!	!	!	!
8C/L	.	8cc\L	8ee\L	4C/	-li	4c\	-li	4e,<\	-li	4cc\	-li	4.ryy	4.ryy
8E\	6_	8cc\	8gg\	.	.	.	.	.	.	.	.	.	.
8G\J	.	8b\J	8dd\J	8G\	lau-	8G/	lau-	8d\	lau-	8b\	lau-	.	.
=15	=15	=15	=15	=15	=15	=15	=15	=15	=15	=15	=15	=15	=15
8c\L	x	16cc\LL	16ee\LL	(8c\L	-da-	4G/	-da-	(8e\L	-da-	(8cc\L	-da-	4.ryy	4.ryy
.	.	16gg\	16gg\	.	.	.	.	.	.	.	.	.	.
8B\	.	16dd\	16dd\	8B\J)	.	.	.	8d\J)	.	8dd\J)	.	.	.
.	.	16gg\	16gg\	.	.	.	.	.	.	.	.	.	.
8c\J	.	16ee\	16cc\	8c\	-te	8G/	-te	8e\	-te	8cc\	-te	.	.
.	.	16gg\JJ	16gg\JJ	.	.	.	.	.	.	.	.	.	.
!	!	!	!	!LO:LB:g=original	!	!	!	!	!	!	!	!	!
=16	=16	=16	=16	=16	=16	=16	=16	=16	=16	=16	=16	=16	=16
8B\L	.	16b\LL	16dd\LL	8B\	e-	8G/	e-	8d\	e-	8dd\	e-	4.ryy	4.ryy
.	.	16gg\	16gg\	.	.	.	.	.	.	.	.	.	.
8G\	.	16dd\	16b\	8G,<\	-um	8G/	-um	8d,<\	-um	8dd\	-um	.	.
.	.	16gg\	16gg\	.	.	.	.	.	.	.	.	.	.
8B\J	.	16b\	16dd\	8B\	lau-	8d\	lau-	8g\	lau-	8dd,<\	lau-	.	.
.	.	16gg\JJ	16gg\JJ	.	.	.	.	.	.	.	.	.	.
!	!	!LO:LB:g=original	!	!	!	!	!	!	!	!	!	!	!
=17	=17	=17	=17	=17	=17	=17	=17	=17	=17	=17	=17	=17	=17
8c\L	.	16cc\LL	16ee\LL	8c\L	-da-	(8c\L	-da-	4g\	-da-	(8ee\L	-da-	4.ryy	4.ryy
.	.	16gg\	16gg\	.	.	.	.	.	.	.	.	.	.
8B\	.	16dd\	16dd\	(8B\J	-te	8d\J)	.	.	.	8dd\J)	.	.	.
.	.	16gg\	16gg\	.	.	.	.	.	.	.	.	.	.
8c\J	.	16ee\	16cc\	8c\)	.	8c\	-te	8g\	-te	8ee\	-te	.	.
.	.	16gg\JJ	16gg\JJ	.	.	.	.	.	.	.	.	.	.
=18	=18	=18	=18	=18	=18	=18	=18	=18	=18	=18	=18	=18	=18
8G\L	.	16b\LL	16b\LL	8.G\	e-	8.B-\	e-	8.g\	e-	8.dd\	e-	4.ryy	4.ryy
.	.	16gg\	16gg\	.	.	.	.	.	.	.	.	.	.
8F\	.	16dd\	16dd\	.	.	.	.	.	.	.	.	.	.
.	.	16gg\	16gg\	16F\	-um	16B-\	-um	16g\	-um	16dd\	-um	.	.
!	!	!	!	!	!	!	!	!	!	!LO:PB:g=original	!	!	!
8E\J	6	16ee\	16ee\	8E\	om-	8c\	om-	8g\	om-	8ee\	om-	.	.
.	.	16gg\JJ	16gg\JJ	.	.	.	.	.	.	.	.	.	.
=19	=19	=19	=19	=19	=19	=19	=19	=19	=19	=19	=19	=19	=19
!LO:TX:a:t=P:problem=mixed beam	!	!	!	!	!	!	!	!	!	!	!	!	!
8F\L	.	16aa\LL	16aa\LL	8F\	-nes	8A/	-nes	8a\	-nes	8dd\	-nes	4.ryy	4.ryy
.	.	16ff\	16ff\	.	.	.	.	.	.	.	.	.	.
8G\	.	16dd\	16dd\	8G\	po-	8.G/	po-	8d\	po-	8.dd\	po-	.	.
.	.	16b\	16b\	.	.	.	.	.	.	.	.	.	.
8GG/J	4	16g\	16g\	8GG/	-pu-	.	.	8g\	-pu-	.	.	.	.
.	3	16b\JJ	16gg\JJ	.	.	16G/	-pu-	.	.	16cc\	-pu-	.	.
!	!	!	!	!	!	!LO:PB:g=original	!	!	!	!	!	!	!
=20	=20	=20	=20	=20	=20	=20	=20	=20	=20	=20	=20	=20	=20
!	!	!LO:TX:a:t=P:problem=mixed beam	!LO:TX:a:t=P:problem=mixed beam	!	!	!	!	!	!	!	!	!	!
!	!	!	!	!	!	!LO:SIC:o:s:=:v:od tej chwili brak bemola przy kluczu	!	!	!	!	!	!	!
8C/	.	16cc\LL	16ee\LL	8C/	-li	8G/	-li	8e\	-li	8cc\	-li	4.ryy	4.ryy
.	.	16e/	16g/	.	.	.	.	.	.	.	.	.	.
8r	.	16c/	16e/	8r	.	8r	.	4r	.	4r	.	.	.
.	.	16e/	16g/	.	.	.	.	.	.	.	.	.	.
8r	.	16f/	16a/	8r	.	8r	.	.	.	.	.	.	.
.	.	16d/JJ	16f/JJ	.	.	.	.	.	.	.	.	.	.
!	!	!	!LO:LB:g=original	!	!	!	!	!LO:LB:g=original	!	!	!	!	!
=21	=21	=21	=21	=21	=21	=21	=21	=21	=21	=21	=21	=21||	=21||
!	!	!LO:TX:a:t=P:problem=mixed beam	!	!	!	!	!	!	!	!	!	!	!
4.C/	.	16e/LL	16g/LL	8.C/	Quo-	8.c\	Quo-	8.g\	Quo-	8.ee\	Quo-	4.ryy	4.ryy
.	.	16ee\	16gg\	.	.	.	.	.	.	.	.	.	.
.	.	16cc\	16ee\	.	.	.	.	.	.	.	.	.	.
.	.	16ee\	16gg\	16C/	-ni-	16c\	-ni-	16g\	-ni-	16ee\	-ni-	.	.
.	.	16b\	16cc\	8C/	-am	8c\	-am	8g\	-am	8ee,<\	-am	.	.
.	.	16cc\JJ	16ee\JJ	.	.	.	.	.	.	.	.	.	.
=22	=22	=22	=22	=22	=22	=22	=22	=22	=22	=22	=22	=22	=22
*	*	*	*	*	*	*	*ij	*	*ij	*	*ij	*	*
4.G\	5 4	16dd\LL	16dd\LL	8.G\	Quo-	8.c\	Quo-	8.g\	Quo-	8.dd\	Quo-	4.ryy	4.ryy
.	.	16gg\	16b\	.	.	.	.	.	.	.	.	.	.
.	.	16dd\	16g\	.	.	.	.	.	.	.	.	.	.
.	x 3	16b\	16dd\	16G\	-ni-	16B-\	-ni-	16g\	-ni-	16dd\	-ni-	.	.
.	.	16g\	16gg\	8G\	-am	8B-\	-am	8g\	-am	8dd,<\	-am	.	.
.	.	16dd\JJ	16dd\JJ	.	.	.	.	.	.	.	.	.	.
*	*	*	*	*	*	*	*Xij	*	*Xij	*	*Xij	*	*
!	!	!	!	!LO:LB:g=original	!	!	!	!	!	!	!	!	!
=23	=23	=23	=23	=23	=23	=23	=23	=23	=23	=23	=23	=23	=23
8c\L	.	8cc\L	8ee\L	(8c\L	con-	4G/	con-	4g\	con-	(8ee\L	con-	4.ryy	4.ryy
8B\	6	8dd\	8gg\	8B\J)	.	.	.	.	.	8dd\J)	.	.	.
!	!	!	!	!	!	!	!	!	!	!LO:SIC:s:=:v:fir	!	!	!
8A\J	6\	8cc\J	8ff#X\J	8A\	-fir-	8c\	-fir-	8f#X\	-fir-	8cc\	-fi-	.	.
=24	=24	=24	=24	=24	=24	=24	=24	=24	=24	=24	=24	=24	=24
8B\L	6	8dd\L	8gg\L	8B\	-ma-	8B-\	-ma-	8g\	-ma-	8dd\	-ma-	4.ryy	4.ryy
8A\	6\	8cc\	8ff#X\	8A\	-ta	8c\	-ta	8f#X\	-ta	8cc\	-ta	.	.
8G\J	.	8b\J	8gg\J	8G\	eſt	8d\	eſt	8g\	eſt	8b\	eſt	.	.
=25	=25	=25	=25	=25	=25	=25	=25	=25	=25	=25	=25	=25	=25
8A\L	6\	16cc\LL	16ff#X\LL	8A\	ſu-	8c\	ſu-	8f#X\	ſu-	8cc\	ſu-	4.ryy	4.ryy
.	.	16a\	16cc\	.	.	.	.	.	.	.	.	.	.
8A\	6\	16cc\	16ff#\	8A\	-per	8A/	-per	8f#\	-per	8cc,<\	-per	.	.
.	.	16ff#X\	16aa\	.	.	.	.	.	.	.	.	.	.
8B\J	6	16dd\	16dd\	8B\	nos	8d\	nos	8fn\	nos	8b\	nos	.	.
.	.	16b\JJ	16gg\JJ	.	.	.	.	.	.	.	.	.	.
!LO:LB:g=original	!	!LO:PB:g=original	!	!	!	!	!	!	!	!	!	!	!
=26	=26	=26	=26	=26	=26	=26	=26	=26	=26	=26	=26	=26	=26
8c\L	6	8ee\L	8aa\L	8c\	mi-	8e\	mi-	8d#X\	mi-	8a\	mi-	4.ryy	4.ryy
8B\	6	8b\	8gg\	8B\	-ſe-	8d\	-ſe-	8f\	-ſe-	8b\	-ſe-	.	.
8A\J	6\	8cc\J	8ff#X\J	8A\	-ri-	8c\	-ri-	8f#X\	-ri-	8cc\	-ri-	.	.
!	!	!	!	!	!	!	!	!	!	!LO:LB:g=original	!	!	!
=27	=27	=27	=27	=27	=27	=27	=27	=27	=27	=27	=27	=27	=27
8B\L	6	8.b\L	8gg\L	8B\	-cor-	8.d\	-cor-	8.g\	-cor-	8.b\	-cor-	4.ryy	4.ryy
8A\	6\	.	8ff#X\	8A\	-di-	.	.	.	.	.	.	.	.
.	.	16cc\	.	.	.	16c\	-di-	16f#X\	-di-	16cc\	-di-	.	.
8G\J	.	8dd\J	8gg\J	8G\	-a	8B-\	-a	8g\	-a	8dd,<\	-a	.	.
!	!	!	!	!	!	!LO:LB:g=original	!	!	!	!	!	!	!
=28	=28	=28	=28	=28	=28	=28	=28	=28	=28	=28	=28	=28	=28
8F#X\L	6_	16dd\LL	16aa\LL	8F#X\	e-	8d\	e-	8a\	e-	8a\	e-	4.ryy	4.ryy
.	.	16a\	16dd\	.	.	.	.	.	.	.	.	.	.
8D\	.	16dd\	16ff#X\	8D/	-jus	8d\	-jus	8f#X\	-jus	8a,<\	-jus	.	.
.	.	16ff#X\	16aa\	.	.	.	.	.	.	.	.	.	.
8F#\J	.	16dd\	16ff#\	8F#X\	et	8A/	et	8d\	et	8dd\	et	.	.
.	x	16a\JJ	16dd\JJ	.	.	.	.	.	.	.	.	.	.
!	!	!	!	!	!	!	!	!LO:LB:g=original	!	!	!	!	!
=29	=29	=29	=29	=29	=29	=29	=29	=29	=29	=29	=29	=29	=29
8G\L	.	8dd\L	8gg\L	8G\	ve-	8.B-\	ve-	8g\	ve-	8.dd\	ve-	4.ryy	4.ryy
8A\	6\	16dd\L	16gg\L	8A\	-ri-	.	.	8f#X\	-ri-	.	.	.	.
.	.	16cc\	16ff#X\J	.	.	16c\	-ri-	.	.	16cc\	-ri-	.	.
8B\J	6	16b\	8gg\J	8B\	-tas	8d\	-tas	8g\	-tas	(16b\LL	-tas	.	.
.	.	16a\JJ	.	.	.	.	.	.	.	16a,<\JJ)	.	.	.
!	!	!	!LO:LB:g=original	!LO:PB:g=original	!	!	!	!	!	!	!	!	!
=30	=30	=30	=30	=30	=30	=30	=30	=30	=30	=30	=30	=30	=30
8c\L	3	8g/L	16ee\LL	8.c\	Do-	8e\	Do-	8e\	Do-	8g/	Do-	4.ryy	4.ryy
.	.	.	16dd\	.	.	.	.	.	.	.	.	.	.
8c\	#4 2	8a/	16ee\	.	.	8d\	-mi-	8f#X\	-mi-	8a\	-mi-	.	.
.	.	.	16ff#X\	16c\	-mi-	.	.	.	.	.	.	.	.
8B\J	6	8b/J	16gg\	8B\	-ni	8d\	-ni	8g\	-ni	8b,<\	-ni	.	.
.	.	.	16dd\JJ	.	.	.	.	.	.	.	.	.	.
=31	=31	=31	=31	=31	=31	=31	=31	=31	=31	=31	=31	=31	=31
8A\L	3	8.cc\L	16aa\LL	8A\	Ma-	8.c\	ma-	8.a\	Ma-	8.cc\	Ma-	4.ryy	4.ryy
.	.	.	16cc\	.	.	.	.	.	.	.	.	.	.
8F#X\	5	.	16ff#X\	8F#X\	-net	.	.	.	.	.	.	.	.
.	.	16cc\K	16aa\	.	.	16A/	-net	16a\	-net	16cc\	-net	.	.
8G\J	.	8b\J	16gg\	8G\	in	8d\	in	8g\	in	8b\	in	.	.
.	.	.	16dd\JJ	.	.	.	.	.	.	.	.	.	.
=32	=32	=32	=32	=32	=32	=32	=32	=32	=32	=32	=32	=32	=32
8C/L	.	8a\L	16cc\LL	8C/	ae-	8e\	ae-	8g\	ae-	8a\	ae-	4.ryy	4.ryy
.	.	.	16gg\	.	.	.	.	.	.	.	.	.	.
8D/	.	8a\	16dd\	4D/	-ter-	(8d\L	-ter-	(8g\L	-ter-	4aT\	-ter-	.	.
.	.	.	16gg\	.	.	.	.	.	.	.	.	.	.
8DD/J	.	8dd\J	16dd\	.	.	8A\J)	.	8f#X\J)	.	.	.	.	.
.	.	.	16ff#X\JJ	.	.	.	.	.	.	.	.	.	.
=33	=33	=33	=33	=33	=33	=33	=33	=33	=33	=33	=33	=33	=33
8GG/L	.	16b/LL	16gg\LL	4GG/	-num	4B-\	-num	4g\	-num	4g,</	-num	4.ryy	4.ryy
.	.	16dd/	16dd\	.	.	.	.	.	.	.	.	.	.
8AA/	.	16g/	16b\	.	.	.	.	.	.	.	.	.	.
.	.	16b/	16dd\	.	.	.	.	.	.	.	.	.	.
8BB/J	6	16d/	16g\	8BB/	et	8G/	et	8g\	et	8dd\	et	.	.
.	.	16dd/JJ	16gg\JJ	.	.	.	.	.	.	.	.	.	.
=34	=34	=34	=34	=34	=34	=34	=34	=34	=34	=34	=34	=34	=34
8C\L	.	16ee\LL	16gg\LL	8C/	ve-	8c\	ve-	8.g\	ve-	8.ee\	ve-	4.ryy	4.ryy
.	.	16ff\	16aa\	.	.	.	.	.	.	.	.	.	.
8D\	6	16ee\	16gg\	8D/	-ri-	8B-\	-ri-	.	.	.	.	.	.
.	.	16dd\	16ff\	.	.	.	.	16f\	-ri-	16dd\	-ri-	.	.
8E\J	6	16cc\	16ee\	8E\	-tas	8c\	-tas	(16e\LL	-tas	(16cc\LL	-tas	.	.
.	.	16b\JJ	16dd\JJ	.	.	.	.	16d\JJ)	.	16b\JJ)	.	.	.
!	!	!	!	!	!	!	!	!	!	!LO:LB:g=original	!	!	!
=35	=35	=35	=35	=35	=35	=35	=35	=35	=35	=35	=35	=35	=35
8F\L	x 3	16a/LL	16cc\LL	8.F\	Do-	8.A/	Do-	8c/	Do-	8a\	Do-	4.ryy	4.ryy
.	.	16g/	16b\	.	.	.	.	.	.	.	.	.	.
8F\	4 2	16a/	16cc\	.	.	.	.	8d\	-mi-	8b\	-mi-	.	.
.	.	16b/	16dd\	16F\	-mi-	16G/	-mi-	.	.	.	.	.	.
8E\J	x 6	16cc/	16ee\	8E\	-ni	8G/	-ni	8e\	-ni	8cc,<\	-ni	.	.
.	.	16g/JJ	16cc\JJ	.	.	.	.	.	.	.	.	.	.
!	!	!LO:LB:g=original	!	!	!	!LO:LB:g=original	!	!	!	!	!	!	!
=36	=36	=36	=36	=36	=36	=36	=36	=36	=36	=36	=36	=36	=36
8D/L	3	16dd\LL	16ff\LL	8D/	Ma-	8A/	Ma-	8.f\	Ma-	8.dd\	Ma-	4.ryy	4.ryy
.	.	16ff\	16aa\	.	.	.	.	.	.	.	.	.	.
8BB/	5	16ee\	16gg\	8BB/	-net	8B-\	-net	.	.	.	.	.	.
.	.	16dd\	16ff\	.	.	.	.	16f\	-net	16dd\	-net	.	.
!	!	!	!	!LO:LB:g=original	!	!	!	!	!	!	!	!	!
8C/J	.	16cc\	16ee\	8C/	in	8G/	in	8e\	in	8cc\	in	.	.
.	.	16ee\JJ	16gg\JJ	.	.	.	.	.	.	.	.	.	.
!	!	!	!	!	!	!	!	!LO:LB:g=original	!	!	!	!	!
=37	=37	=37	=37	=37	=37	=37	=37	=37	=37	=37	=37	=37	=37
!LO:TX:a:t=P:problem=mixed beam	!	!	!	!	!	!	!	!	!	!	!	!	!
8F\L	.	16ff\LL	16aa\LL	8F\	ae-	8d\	ae-	8d\	ae-	(16dd\LL	ae-	4.ryy	4.ryy
.	.	16dd\	16ff\	.	.	.	.	.	.	16cc\JJ)	.	.	.
!	!	!	!	!LO:TX:a:t=P:problem=mixed beam	!	!	!	!	!	!	!	!	!
8G\	.	16b\	16dd\	(8G\L	-ter-	4dT\	-ter-	(8d\L	-ter-	(8cc\L	-ter-	.	.
.	.	16ff\	16aa\	.	.	.	.	.	.	.	.	.	.
8GG/J	.	16ee\	16gg\	8GG/J)	.	.	.	8g\J)	.	8b\J)	.	.	.
.	.	16dd\JJ	16ff\JJ	.	.	.	.	.	.	.	.	.	.
!	!	!	!LO:LB:g=original	!	!	!	!	!	!	!	!	!	!
=38	=38	=38	=38	=38	=38	=38	=38	=38	=38	=38	=38	=38	=38
!LO:SIC:o:s:=:v:takt powtórzony repetycją	!	!	!	!	!	!	!	!	!	!	!	!	!
!LO:TX:a:t=P:problem=mixed beam	!	!	!	!	!	!	!	!	!	!	!	!	!
8C/L	.	16cc\LL	16ee\LL	8C/	-num	8c\	-num	8e\	-num	8cc,<\	-num	4.ryy	4.ryy
.	.	16ee\	16gg\	.	.	.	.	.	.	.	.	.	.
8F\	.	16ff\	16aa\	8F\	Ma-	8c\	Ma-	8c/	Ma-	8cc\	Ma-	.	.
.	.	16cc\	16ff\	.	.	.	.	.	.	.	.	.	.
8E\J	.	16a\	16cc\	8E\	-net	8c\	-net	8c/	-net	8cc\	-net	.	.
.	.	16cc\JJ	16gg\JJ	.	.	.	.	.	.	.	.	.	.
=39	=39	=39	=39	=39	=39	=39	=39	=39	=39	=39	=39	=39	=39
*	*	*	*	*	*ij	*	*	*	*ij	*	*ij	*	*
!LO:TX:a:t=P:problem=mixed beam	!	!	!LO:SIC:o:s:=:v:tak powtórzony repetycją	!	!	!	!	!	!	!	!	!	!
8C/Lyy	.	16ff\LL	16aa\LL	8F\	Ma-	8c\	Ma-	8c/	Ma-	8cc\	Ma-	4.ryy	4.ryy
.	.	16cc\	16ff\	.	.	.	.	.	.	.	.	.	.
8F\yy	.	16ee\	16ee\	8C/	-net	8c\	-net	8c/	-net	8cc\	-net	.	.
.	.	16cc\	16gg\	.	.	.	.	.	.	.	.	.	.
*	*	*	*	*	*Xij	*	*	*	*Xij	*	*Xij	*	*
8E\Jyy	.	16g\	16cc\	8E\	in	8c\	in	8g\	in	8cc\	in	.	.
.	.	16cc\JJ	16gg\JJ	.	.	.	.	.	.	.	.	.	.
=40	=40	=40	=40	=40	=40	=40	=40	=40	=40	=40	=40	=40	=40
!LO:TX:a:t=P:problem=mixed beam	!	!	!	!	!	!	!	!	!	!	!	!	!
8F#X\L	6 5	16ff\LL	16aa\LLyy	8F#X\	ae-	8d\	ae-	8a\	ae-	8cc\	ae-	4.ryy	4.ryy
.	.	16cc\	16ff\yy	.	.	.	.	.	.	.	.	.	.
!	!	!	!LO:TX:a:t=bis	!LO:TX:a:t=P:problem=mixed beam	!	!	!	!	!	!	!	!	!
8G\	4	16ee\	16ee\yy	(8G\L	-ter-	4d\	-ter-	(8g\L	-ter-	(8cc\L	-ter-	.	.
.	.	16cc\	16gg\yy	.	.	.	.	.	.	.	.	.	.
8GG\J	3	16g\	16cc\yy	8GG\J)	.	.	.	8f\J)	.	8b\J)	.	.	.
.	.	16cc\JJ	16gg\JJyy	.	.	.	.	.	.	.	.	.	.
=41	=41	=41	=41	=41	=41	=41	=41	=41	=41	=41	=41	=41	=41
4.C/	.	16ff#X\LL	16aa\LL	4.C/;<	-num	4.c\;	-num	4.e\	-num	4.cc\	-num	4.ryy	4.ryy
.	.	16dd\	16ff#X\	.	.	.	.	.	.	.	.	.	.
.	.	16b\	16dd\	.	.	.	.	.	.	.	.	.	.
.	.	16gg\	16ccc\	.	.	.	.	.	.	.	.	.	.
.	.	16dd\	16dd\	.	.	.	.	.	.	.	.	.	.
.	.	16gg\JJ	16bb\JJ	.	.	.	.	.	.	.	.	.	.
=42	=42	=42	=42	=42	=42	=42	=42	=42	=42	=42	=42	=42	=42
4.ryy	.	4.ee;\	4.ccc\;	4.ryy	.	4.ryy	.	4.ryy	.	4.ryy	.	4.ryy	4.ryy
!	!	!LO:LB:g=original	!	!	!	!	!	!	!	!	!	!	!
=43||	=43||	=43:||:	=43||	=43||	=43||	=43||	=43||	=43||	=43||	=43||	=43||	=43||	=43||
*M4/4	*	*M4/4	*M4/4	*M4/4	*	*	*	*	*	*M4/4	*	*M4/4	*M4/4
*met(c)	*	*met(c)	*met(c)	*met(c)	*	*met(c)	*	*met(c)	*	*met(c)	*	*met(c)	*met(c)
!	!	!	!	!	!	!LO:TX:a:t=Gloria Canto Solo \nTacet	!	!LO:TX:a:t=Gloria Canto \nSolo Tacet	!	!	!	!	!
!LO:TX:b:t=Gloria	!	!	!	!	!	!	!	!	!	!	!	!	!
!LO:TX:a:t=P:problem=mixed beam	!	!LO:TX:a:i:t=solo	!LO:TX:a:i:t=solo	!	!	!	!	!	!	!	!	!	!
!LO:TX:a:i:t=solo	!	!LO:TX:rj:a:B:t=Largo	!LO:TX:rj:a:B:t=Largo	!LO:TX:a:t=Gloria \nTacet	!	!	!	!	!	!LO:TX:a:i:t=solo	!	!	!
!LO:TX:rj:a:B:t=Largo	!	!LO:TX:b:t=Gloria	!LO:TX:b:t=Gloria	!	!	!	!	!	!	!LO:TX:a:B:t=Largo	!	!	!
8A\L	.	4cc\	4ee\	1ryy	.	1ryy	.	1ryy	.	00r	.	1ryy	1ryy
8AA/	.	.	.	.	.	.	.	.	.	.	.	.	.
8AA/	.	8r	8r	.	.	.	.	.	.	.	.	.	.
8A\J	.	8cc\	8ee\	.	.	.	.	.	.	.	.	.	.
8G#X\L	n7_ 5_	4dd\	4ff\	.	.	.	.	.	.	.	.	.	.
8E\	.	.	.	.	.	.	.	.	.	.	.	.	.
8E\	.	8r	8r	.	.	.	.	.	.	.	.	.	.
8G#\J	x	8dd\	8ff\	.	.	.	.	.	.	.	.	.	.
=44	=44	=44	=44	=44	=44	=44	=44	=44	=44	=44	=44	=44	=44
4A\	.	8cc\L	8ee\L	1ryy	.	1ryy	.	1ryy	.	.	.	1ryy	1ryy
!	!	!LO:TX:a:t=P:problem=mixed beam	!LO:TX:a:t=P:problem=mixed beam	!	!	!	!	!	!	!	!	!	!
.	.	8c/	8e/	.	.	.	.	.	.	.	.	.	.
8r	.	8c/	8e/	.	.	.	.	.	.	.	.	.	.
8A\	.	8cc\J	8ee\J	.	.	.	.	.	.	.	.	.	.
4D\	6 5	8b\L	8dd\L	.	.	.	.	.	.	.	.	.	.
!	!	!LO:TX:a:t=P:problem=mixed beam	!LO:TX:a:t=P:problem=mixed beam	!	!	!	!	!	!	!	!	!	!
.	.	8B/	8d/	.	.	.	.	.	.	.	.	.	.
8r	.	8B/	8d/	.	.	.	.	.	.	.	.	.	.
8E\	7 #	8b\J	8dd\J	.	.	.	.	.	.	.	.	.	.
=45	=45	=45	=45	=45	=45	=45	=45	=45	=45	=45	=45	=45	=45
!LO:TX:a:t=P:problem=mixed beam	!	!	!	!	!	!	!	!	!	!	!	!	!
8A\L	.	4a/	4cc\	1ryy	.	1ryy	.	1ryy	.	.	.	1ryy	1ryy
8AA/	.	.	.	.	.	.	.	.	.	.	.	.	.
8AA/	.	8r	8r	.	.	.	.	.	.	.	.	.	.
8A\J	.	8cc\	8ee\	.	.	.	.	.	.	.	.	.	.
4D/	n	8dd\L	8ff\L	.	.	.	.	.	.	.	.	.	.
!	!	!LO:TX:a:t=P:problem=mixed beam	!LO:TX:a:t=P:problem=mixed beam	!	!	!	!	!	!	!	!	!	!
.	.	8d/	8f/	.	.	.	.	.	.	.	.	.	.
8r	.	8d/	8f/	.	.	.	.	.	.	.	.	.	.
8D/	.	8dd\J	8ff\J	.	.	.	.	.	.	.	.	.	.
!	!	!	!LO:LB:g=original	!	!	!	!	!	!	!	!	!	!
=46	=46	=46	=46	=46	=46	=46	=46	=46	=46	=46	=46	=46	=46
!LO:TX:a:t=P:problem=mixed beam	!	!	!	!	!	!	!	!	!	!	!	!	!
8G\L	.	4b/	4dd\	1ryy	.	1ryy	.	1ryy	.	.	.	1ryy	1ryy
8GG/	.	.	.	.	.	.	.	.	.	.	.	.	.
8GG/	.	8r	8r	.	.	.	.	.	.	.	.	.	.
8G\J	.	8b/	8dd\	.	.	.	.	.	.	.	.	.	.
4C/	.	8cc\L	8ee\L	.	.	.	.	.	.	.	.	.	.
!	!	!LO:TX:a:t=P:problem=mixed beam	!LO:TX:a:t=P:problem=mixed beam	!	!	!	!	!	!	!	!	!	!
.	.	8c/	8e/	.	.	.	.	.	.	.	.	.	.
8r	.	8c/	8e/	.	.	.	.	.	.	.	.	.	.
8C/	.	8cc\J	8ee\J	.	.	.	.	.	.	.	.	.	.
=47	=47	=47	=47	=47	=47	=47	=47	=47	=47	=47	=47	=47	=47
!LO:TX:a:t=P:problem=mixed beam	!	!	!	!	!	!	!	!	!	!	!	!	!
8F\L	5	4a/	4cc\	1ryy	.	1ryy	.	1ryy	.	0r	.	1ryy	1ryy
8FF/	.	.	.	.	.	.	.	.	.	.	.	.	.
8FF/	.	8r	8r	.	.	.	.	.	.	.	.	.	.
8F\J	.	8a/	8cc\	.	.	.	.	.	.	.	.	.	.
4BB/	3	8b\L	8dd\L	.	.	.	.	.	.	.	.	.	.
!	!	!LO:TX:a:t=P:problem=mixed beam	!LO:TX:a:t=P:problem=mixed beam	!	!	!	!	!	!	!	!	!	!
.	.	8B/	8d/	.	.	.	.	.	.	.	.	.	.
8r	.	8B/	8d/	.	.	.	.	.	.	.	.	.	.
8BB/	.	8b\J	8dd\J	.	.	.	.	.	.	.	.	.	.
=48	=48	=48	=48	=48	=48	=48	=48	=48	=48	=48	=48	=48	=48
!LO:TX:a:t=P:problem=mixed beam	!	!	!	!	!	!	!	!	!	!	!	!	!
8E\L	#	4g#X/	4b/	1ryy	.	1ryy	.	1ryy	.	.	.	1ryy	1ryy
8EE/	.	.	.	.	.	.	.	.	.	.	.	.	.
8EE/	.	8r	8r	.	.	.	.	.	.	.	.	.	.
8E\J	.	8g#/	8b/	.	.	.	.	.	.	.	.	.	.
4AA/	.	8cc\L	8aa\L	.	.	.	.	.	.	.	.	.	.
!	!	!LO:TX:a:t=P:problem=mixed beam	!LO:TX:a:t=P:problem=mixed beam	!	!	!	!	!	!	!	!	!	!
.	.	8c/	8a/	.	.	.	.	.	.	.	.	.	.
8r	.	8c/	8a/	.	.	.	.	.	.	.	.	.	.
8AA/	.	8cc\J	8aa\J	.	.	.	.	.	.	.	.	.	.
!	!	!LO:LB:g=original	!	!	!	!	!	!	!	!	!	!	!
=49	=49	=49	=49	=49	=49	=49	=49	=49	=49	=49	=49	=49	=49
4D/	.	8dd\L	8ff\L	1ryy	.	1ryy	.	1ryy	.	1r	.	1ryy	1ryy
.	.	16ff\L	16aa\L	.	.	.	.	.	.	.	.	.	.
.	.	16dd\JJ	16dd\JJ	.	.	.	.	.	.	.	.	.	.
!	!	!LO:TX:a:t=P:problem=mixed beam	!	!	!	!	!	!	!	!	!	!	!
8r	.	8b\L	8dd\L	.	.	.	.	.	.	.	.	.	.
8D/	.	16dd\L	16ff\L	.	.	.	.	.	.	.	.	.	.
.	.	16d/JJ	16b\JJ	.	.	.	.	.	.	.	.	.	.
!LO:TX:a:t=P:problem=mixed beam	!	!	!	!	!	!	!	!	!	!	!	!	!
8E\L	#	8g#X/L	8b\L	.	.	.	.	.	.	.	.	.	.
!	!	!	!LO:TX:a:t=P:problem=mixed beam	!	!	!	!	!	!	!	!	!	!
8EE/	.	16b/L	16dd\L	.	.	.	.	.	.	.	.	.	.
.	.	16e/JJ	16g#X/JJ	.	.	.	.	.	.	.	.	.	.
8EE/	.	8e/L	8g#/L	.	.	.	.	.	.	.	.	.	.
8E\J	.	8b/J	16b/L	.	.	.	.	.	.	.	.	.	.
.	.	.	16e/JJ	.	.	.	.	.	.	.	.	.	.
!LO:LB:g=original	!	!	!	!	!	!	!	!	!	!LO:LB:g=original	!	!	!
=50	=50	=50	=50	=50	=50	=50	=50	=50	=50	=50	=50	=50	=50
8AA/L	.	8cc\L	8ee\L	1ryy	.	1ryy	.	1ryy	.	2r	.	1ryy	1ryy
8D/J	6	16b\L	16dd\L	.	.	.	.	.	.	.	.	.	.
.	5	16a\JJ	16cc\JJ	.	.	.	.	.	.	.	.	.	.
!LO:TX:a:t=P:problem=mixed beam	!	!	!	!	!	!	!	!	!	!	!	!	!
8E\L	4	8a/L	4b/	.	.	.	.	.	.	.	.	.	.
8EE\J	2	8g#X/J	.	.	.	.	.	.	.	.	.	.	.
.	#	.	.	.	.	.	.	.	.	.	.	.	.
!	!	!	!LO:TX:b:t=Canto	!	!	!	!	!	!	!	!	!	!
8A\L	.	4a/	4aT/	.	.	.	.	.	.	8r	.	.	.
!LO:TX:a:t=P:problem=mixed beam	!	!	!	!	!	!	!	!	!	!	!	!	!
8AA/	.	.	.	.	.	.	.	.	.	16a\LL	Glo-	.	.
.	.	.	.	.	.	.	.	.	.	16b\JJ	.	.	.
8AA/	.	4r	4r	.	.	.	.	.	.	8cc\L	.	.	.
8A\J	.	.	.	.	.	.	.	.	.	16dd\L	.	.	.
.	.	.	.	.	.	.	.	.	.	16ee\JJ	.	.	.
!	!	!	!LO:LB:g=original	!	!	!	!	!	!	!	!	!	!
=51	=51	=51	=51	=51	=51	=51	=51	=51	=51	=51	=51	=51	=51
!	!	!	!	!	!	!	!	!	!	!LO:TX:a:t=P:problem=mixed beam	!	!	!
8G#X\L	n7_	2r	2r	1ryy	.	1ryy	.	1ryy	.	8ff\L	.	1ryy	1ryy
8E\	.	.	.	.	.	.	.	.	.	8e/	.	.	.
8E\	.	.	.	.	.	.	.	.	.	8g#X/	.	.	.
8G#\J	.	.	.	.	.	.	.	.	.	8b/J	.	.	.
4A\	x	8cc\L	8ee\L	.	.	.	.	.	.	8.cc\	.	.	.
!	!	!LO:TX:a:t=P:problem=mixed beam	!LO:TX:a:t=P:problem=mixed beam	!	!	!	!	!	!	!	!	!	!
.	.	8c/	8e/	.	.	.	.	.	.	.	.	.	.
.	.	.	.	.	.	.	.	.	.	16b\	-ri-	.	.
8r	.	8c/	8e/	.	.	.	.	.	.	4a,<\	-a	.	.
8A\	.	8cc\J	8ee\J	.	.	.	.	.	.	.	.	.	.
=52	=52	=52	=52	=52	=52	=52	=52	=52	=52	=52	=52	=52	=52
4D\	6 5	8b\L	8dd\L	1ryy	.	1ryy	.	1ryy	.	2r	.	1ryy	1ryy
!	!	!LO:TX:a:t=P:problem=mixed beam	!LO:TX:a:t=P:problem=mixed beam	!	!	!	!	!	!	!	!	!	!
.	.	8B/	8d/	.	.	.	.	.	.	.	.	.	.
8r	.	8B/	8d/	.	.	.	.	.	.	.	.	.	.
8E\	7 #	8b\J	8dd\J	.	.	.	.	.	.	.	.	.	.
!LO:TX:a:t=P:problem=mixed beam	!	!	!	!	!	!	!	!	!	!	!	!	!
8A\L	.	4a/	4cc\	.	.	.	.	.	.	8r	.	.	.
8AA/	.	.	.	.	.	.	.	.	.	16a\LL	glo-	.	.
.	.	.	.	.	.	.	.	.	.	16b\JJ	.	.	.
8AA/	.	4r	4r	.	.	.	.	.	.	8cc\L	.	.	.
8A\J	.	.	.	.	.	.	.	.	.	16dd\L	.	.	.
.	.	.	.	.	.	.	.	.	.	16ee\JJ	.	.	.
=53	=53	=53	=53	=53	=53	=53	=53	=53	=53	=53	=53	=53	=53
!	!	!	!	!	!	!	!	!	!	!LO:TX:a:t=P:problem=mixed beam	!	!	!
8G#X\L	n7_	2r	2r	1ryy	.	1ryy	.	1ryy	.	8ff\L	.	1ryy	1ryy
8E\	.	.	.	.	.	.	.	.	.	8e/	.	.	.
8E\	.	.	.	.	.	.	.	.	.	8g#X/	.	.	.
8G#\J	.	.	.	.	.	.	.	.	.	8b/J	.	.	.
4A\	x	8a\L	8cc\L	.	.	.	.	.	.	8.cc\	.	.	.
!	!	!LO:TX:a:t=P:problem=mixed beam	!LO:TX:a:t=P:problem=mixed beam	!	!	!	!	!	!	!	!	!	!
.	.	8A/	8c/	.	.	.	.	.	.	.	.	.	.
.	.	.	.	.	.	.	.	.	.	16b\	-ri-	.	.
4r	.	8A/	8c/	.	.	.	.	.	.	4a,<\	-a	.	.
.	.	8a\J	8cc\J	.	.	.	.	.	.	.	.	.	.
=54	=54	=54	=54	=54	=54	=54	=54	=54	=54	=54	=54	=54	=54
!LO:TX:a:t=P:problem=mixed beam	!	!	!	!	!	!	!	!	!	!	!	!	!
8A\L	.	4c/	4a/	1ryy	.	1ryy	.	1ryy	.	8r	.	1ryy	1ryy
8AA/	.	.	.	.	.	.	.	.	.	16ee\LL	Glo-	.	.
.	.	.	.	.	.	.	.	.	.	16dd\JJ	.	.	.
8AA/	.	4r	4r	.	.	.	.	.	.	16cc\LL	.	.	.
.	.	.	.	.	.	.	.	.	.	16ee\	.	.	.
8A\J	.	.	.	.	.	.	.	.	.	16dd\	.	.	.
.	.	.	.	.	.	.	.	.	.	16ee\JJ	.	.	.
4D/	.	2r	2r	.	.	.	.	.	.	16ff\LL	.	.	.
.	.	.	.	.	.	.	.	.	.	16ee\JJ	.	.	.
.	.	.	.	.	.	.	.	.	.	16ff\	-ri-	.	.
.	.	.	.	.	.	.	.	.	.	16gg\	-a	.	.
!	!	!	!	!	!	!	!	!	!	!LO:LB:g=original	!	!	!
8r	.	.	.	.	.	.	.	.	.	16ff\LL	Pa-	.	.
.	.	.	.	.	.	.	.	.	.	16gg\	.	.	.
8D/	.	.	.	.	.	.	.	.	.	16ff\	.	.	.
.	.	.	.	.	.	.	.	.	.	16ee\JJ	.	.	.
=55	=55	=55	=55	=55	=55	=55	=55	=55	=55	=55	=55	=55	=55
8G\L	.	0r	0r	1ryy	.	1ryy	.	1ryy	.	8dd,<\	-tri	1ryy	1ryy
!LO:TX:a:t=P:problem=mixed beam	!	!	!	!	!	!	!	!	!	!	!	!	!
8GG/	.	.	.	.	.	.	.	.	.	16dd\LL	glo-	.	.
.	.	.	.	.	.	.	.	.	.	16cc\JJ	.	.	.
8GG/	.	.	.	.	.	.	.	.	.	16b\LL	.	.	.
.	.	.	.	.	.	.	.	.	.	16dd\	.	.	.
8G\J	.	.	.	.	.	.	.	.	.	16cc\	.	.	.
.	.	.	.	.	.	.	.	.	.	16dd\JJ	.	.	.
4C/	.	.	.	.	.	.	.	.	.	16ee\LL	.	.	.
.	.	.	.	.	.	.	.	.	.	16dd\JJ	.	.	.
.	.	.	.	.	.	.	.	.	.	16ee\	-ri-	.	.
.	.	.	.	.	.	.	.	.	.	16ff\	-a	.	.
8r	.	.	.	.	.	.	.	.	.	(16ee\LL	Fi-	.	.
.	.	.	.	.	.	.	.	.	.	16ff\JJ)	.	.	.
8C/	.	.	.	.	.	.	.	.	.	(16ee\LL	-li-	.	.
.	.	.	.	.	.	.	.	.	.	16dd\JJ)	.	.	.
=56	=56	=56	=56	=56	=56	=56	=56	=56	=56	=56	=56	=56	=56
8F\L	5	.	.	1ryy	.	1ryy	.	1ryy	.	8cc,<\	-o	1ryy	1ryy
8FF/	.	.	.	.	.	.	.	.	.	16cc\LL	glo-	.	.
.	.	.	.	.	.	.	.	.	.	16b\JJ	.	.	.
!LO:TX:a:t=P:problem=mixed beam	!	!	!	!	!	!	!	!	!	!	!	!	!
8FF/	.	.	.	.	.	.	.	.	.	16a\LL	.	.	.
.	.	.	.	.	.	.	.	.	.	16cc\	.	.	.
8F\J	.	.	.	.	.	.	.	.	.	16b\	.	.	.
.	.	.	.	.	.	.	.	.	.	16cc\JJ	.	.	.
4BB/	.	.	.	.	.	.	.	.	.	16dd\LL	.	.	.
.	.	.	.	.	.	.	.	.	.	16cc\JJ	.	.	.
.	.	.	.	.	.	.	.	.	.	16dd\	-ri-	.	.
.	.	.	.	.	.	.	.	.	.	16ee\	-a-	.	.
!LO:PB:g=original	!	!	!	!	!	!	!	!	!	!	!	!	!
8r	.	.	.	.	.	.	.	.	.	(16dd\LL	-et	.	.
.	.	.	.	.	.	.	.	.	.	16ee\JJ)	.	.	.
8D/	.	.	.	.	.	.	.	.	.	(16dd\LL	Spi-	.	.
.	.	.	.	.	.	.	.	.	.	16cc\JJ)	.	.	.
=57	=57	=57	=57-	=57	=57	=57	=57	=57	=57	=57	=57	=57	=57
8G\L	.	2r	2r	1ryy	.	1ryy	.	1ryy	.	8b\	-ri-	1ryy	1ryy
8F\J	5	.	.	.	.	.	.	.	.	16cc\	-tu-	.	.
.	6	.	.	.	.	.	.	.	.	16dd\	-i	.	.
!	!	!	!	!	!	!	!	!	!	!LO:LB:g=original	!	!	!
!LO:TX:a:t=P:problem=mixed beam	!	!	!	!	!	!	!	!	!	!	!	!	!
8G\L	4	.	.	.	.	.	.	.	.	(8g\L	san-	.	.
8GG/J	3	.	.	.	.	.	.	.	.	8b\J)	.	.	.
4C/	.	8ee\L	8gg\L	.	.	.	.	.	.	4cc\	-cto	.	.
.	.	8e/	8g/	.	.	.	.	.	.	.	.	.	.
!	!	!LO:TX:a:t=P:problem=mixed beam	!LO:TX:a:t=P:problem=mixed beam	!	!	!	!	!	!	!	!	!	!
8r	.	8e/	8g/	.	.	.	.	.	.	4r	.	.	.
8C/	.	8ee\J	8gg\J	.	.	.	.	.	.	.	.	.	.
!	!	!LO:LB:g=original	!	!	!	!	!	!	!	!	!	!	!
=58	=58	=58	=58	=58	=58	=58	=58	=58	=58	=58	=58	=58	=58
!	!	!LO:TX:a:t=P:problem=mixed beam	!LO:TX:a:t=P:problem=mixed beam	!	!	!	!	!	!	!	!	!	!
4F\	6 5	8dd\L	8ff\L	1ryy	.	1ryy	.	1ryy	.	00r	.	1ryy	1ryy
.	.	8d/	8f/	.	.	.	.	.	.	.	.	.	.
8r	.	8d/	8f/	.	.	.	.	.	.	.	.	.	.
8G\	7	8dd\J	8ff\J	.	.	.	.	.	.	.	.	.	.
8c\L	.	4cc\	4ee\	.	.	.	.	.	.	.	.	.	.
!LO:TX:a:t=P:problem=mixed beam	!	!	!	!	!	!	!	!	!	!	!	!	!
8C/	.	.	.	.	.	.	.	.	.	.	.	.	.
8C/	.	8r	8r	.	.	.	.	.	.	.	.	.	.
8c\J	.	8ee\	8gg\	.	.	.	.	.	.	.	.	.	.
=59	=59	=59	=59	=59	=59	=59	=59	=59	=59	=59	=59	=59	=59
8B\L	-7_	4ff\	4aa-X\	1ryy	.	1ryy	.	1ryy	.	.	.	1ryy	1ryy
!LO:TX:a:t=P:problem=mixed beam	!	!	!	!	!	!	!	!	!	!	!	!	!
8BB/	.	.	.	.	.	.	.	.	.	.	.	.	.
8BB/	.	8r	8r	.	.	.	.	.	.	.	.	.	.
8B\J	.	8ff\	8aa-X\	.	.	.	.	.	.	.	.	.	.
4c\	x	8ee\L	8gg\L	.	.	.	.	.	.	.	.	.	.
!	!	!LO:TX:a:t=P:problem=mixed beam	!LO:TX:a:t=P:problem=mixed beam	!	!	!	!	!	!	!	!	!	!
.	.	8e/	8g/	.	.	.	.	.	.	.	.	.	.
8r	.	8e/	8g/	.	.	.	.	.	.	.	.	.	.
8c\	.	8ee\J	8gg\J	.	.	.	.	.	.	.	.	.	.
!	!	!	!LO:LB:g=original	!	!	!	!	!	!	!	!	!	!
=60	=60	=60	=60	=60	=60	=60	=60	=60	=60	=60	=60	=60	=60
4F\	.	8ff\L	8aa\L	1ryy	.	1ryy	.	1ryy	.	.	.	1ryy	1ryy
!	!	!LO:TX:a:t=P:problem=mixed beam	!LO:TX:a:t=P:problem=mixed beam	!	!	!	!	!	!	!	!	!	!
.	.	8f/	8a/	.	.	.	.	.	.	.	.	.	.
8r	.	8f/	8a/	.	.	.	.	.	.	.	.	.	.
8F\	.	8ff\J	8aa\J	.	.	.	.	.	.	.	.	.	.
8B-X\L	.	4dd\	4ff\	.	.	.	.	.	.	.	.	.	.
8BB-X/	.	.	.	.	.	.	.	.	.	.	.	.	.
!LO:TX:a:t=P:problem=mixed beam	!	!	!	!	!	!	!	!	!	!	!	!	!
8BB-/	.	8r	8r	.	.	.	.	.	.	.	.	.	.
8B-\J	.	8dd\	8ff\	.	.	.	.	.	.	.	.	.	.
=61	=61	=61	=61	=61	=61	=61	=61	=61	=61	=61	=61	=61	=61
4E\	.	8ee\L	8gg\L	1ryy	.	1ryy	.	1ryy	.	.	.	1ryy	1ryy
!	!	!LO:TX:a:t=P:problem=mixed beam	!LO:TX:a:t=P:problem=mixed beam	!	!	!	!	!	!	!	!	!	!
.	.	8e\	8g/	.	.	.	.	.	.	.	.	.	.
8r	.	8e/	8g/	.	.	.	.	.	.	.	.	.	.
8E\	.	8ee\J	8gg\J	.	.	.	.	.	.	.	.	.	.
8A\L	n	4cc\	4ee\	.	.	.	.	.	.	.	.	.	.
!LO:TX:a:t=P:problem=mixed beam	!	!	!	!	!	!	!	!	!	!	!	!	!
8AA/	.	.	.	.	.	.	.	.	.	.	.	.	.
8AA/	.	8r	8r	.	.	.	.	.	.	.	.	.	.
8A\J	.	8cc\	8ee\	.	.	.	.	.	.	.	.	.	.
=62	=62	=62	=62	=62	=62	=62	=62	=62	=62	=62	=62	=62	=62
!	!	!LO:TX:a:t=P:problem=mixed beam	!LO:TX:a:t=P:problem=mixed beam	!	!	!	!	!	!	!	!	!	!
4D/	.	8dd\L	8ff\L	1ryy	.	1ryy	.	1ryy	.	0r	.	1ryy	1ryy
.	.	8d/	8f/	.	.	.	.	.	.	.	.	.	.
8r	.	8d/	8f/	.	.	.	.	.	.	.	.	.	.
8D/	.	8dd\J	8ff\J	.	.	.	.	.	.	.	.	.	.
8G\L	.	4b/	4dd\	.	.	.	.	.	.	.	.	.	.
!LO:TX:a:t=P:problem=mixed beam	!	!	!	!	!	!	!	!	!	!	!	!	!
8GG/	.	.	.	.	.	.	.	.	.	.	.	.	.
8GG/	.	8r	8r	.	.	.	.	.	.	.	.	.	.
8G\J	.	8b/	8dd\	.	.	.	.	.	.	.	.	.	.
=63	=63	=63	=63	=63	=63	=63	=63	=63	=63	=63	=63	=63	=63
!	!	!LO:TX:a:t=P:problem=mixed beam	!	!	!	!	!	!	!	!	!	!	!
4C/	.	8ee\L	8ccc\L	1ryy	.	1ryy	.	1ryy	.	.	.	1ryy	1ryy
.	.	8e/	8cc\	.	.	.	.	.	.	.	.	.	.
8r	.	8e/	8cc\	.	.	.	.	.	.	.	.	.	.
8C/	.	8ee\J	8ccc\J	.	.	.	.	.	.	.	.	.	.
!LO:LB:g=original	!	!	!	!	!	!	!	!	!	!	!	!	!
!LO:TX:a:t=P:problem=mixed beam	!	!	!	!	!	!	!	!	!	!	!	!	!
8G\L	.	8dd\	8bb\L	.	.	.	.	.	.	.	.	.	.
8c\	.	4cc\	16ccc\L	.	.	.	.	.	.	.	.	.	.
.	.	.	16dd\JJ	.	.	.	.	.	.	.	.	.	.
8G\	.	.	8ee\L	.	.	.	.	.	.	.	.	.	.
8GG/J	4	8b/	8ddT\J	.	.	.	.	.	.	.	.	.	.
.	8	.	.	.	.	.	.	.	.	.	.	.	.
!	!	!LO:LB:g=original	!	!	!	!	!	!	!	!	!	!	!
=64	=64	=64	=64	=64	=64	=64	=64	=64	=64	=64	=64	=64	=64
8c\L	.	4cc\	4cc\	1ryy	.	1ryy	.	1ryy	.	8r	.	1ryy	1ryy
8C/	.	.	.	.	.	.	.	.	.	16cc\LL	glo-	.	.
.	.	.	.	.	.	.	.	.	.	16dd\JJ	.	.	.
!LO:TX:a:t=P:problem=mixed beam	!	!	!	!	!	!	!	!	!	!	!	!	!
8C/	.	4r	4r	.	.	.	.	.	.	8ee\L	.	.	.
8c\J	.	.	.	.	.	.	.	.	.	16ff\L	.	.	.
.	.	.	.	.	.	.	.	.	.	16gg\JJ	.	.	.
!	!	!	!	!	!	!	!	!	!	!LO:TX:a:t=P:problem=mixed beam	!	!	!
8B\L	n7	2r	2r	.	.	.	.	.	.	8aa\L	.	.	.
8G\	.	.	.	.	.	.	.	.	.	8g/	.	.	.
8G\	.	.	.	.	.	.	.	.	.	8b/	.	.	.
8B\J	.	.	.	.	.	.	.	.	.	8dd/J	.	.	.
=65	=65	=65	=65	=65	=65	=65	=65	=65	=65	=65	=65	=65	=65
!	!	!LO:TX:a:t=P:problem=mixed beam	!LO:TX:a:t=P:problem=mixed beam	!	!	!	!	!	!	!	!	!	!
4c\	.	8eeL\	8ggL\	1ryy	.	1ryy	.	1ryy	.	8.ee\	.	1ryy	1ryy
.	.	8e/	8g/	.	.	.	.	.	.	.	.	.	.
.	.	.	.	.	.	.	.	.	.	16dd\	-ri-	.	.
8r	.	8e/	8g/	.	.	.	.	.	.	4cc,<\	-a	.	.
8c\	.	8ee\J	8gg\J	.	.	.	.	.	.	.	.	.	.
!	!	!LO:TX:a:t=P:problem=mixed beam	!LO:TX:a:t=P:problem=mixed beam	!	!	!	!	!	!	!	!	!	!
4F\	6	8eeL\	8ggL\	.	.	.	.	.	.	2r	.	.	.
.	.	8e/	8g/	.	.	.	.	.	.	.	.	.	.
8r	.	8e/	8g/	.	.	.	.	.	.	.	.	.	.
8G\	7	8ee\J	8gg\J	.	.	.	.	.	.	.	.	.	.
=66	=66	=66	=66	=66	=66	=66	=66	=66	=66	=66	=66	=66	=66
8c\L	.	4cc\	4ee\	1ryy	.	1ryy	.	1ryy	.	8r	.	1ryy	1ryy
8C/	.	.	.	.	.	.	.	.	.	8g\L	glo-	.	.
!LO:TX:a:t=P:problem=mixed beam	!	!	!	!	!	!	!	!	!	!	!	!	!
8C/	.	4r	4r	.	.	.	.	.	.	8cc\	.	.	.
8c\J	.	.	.	.	.	.	.	.	.	8ee\J	.	.	.
8B\L	5_	2r	2r	.	.	.	.	.	.	8f/L	.	.	.
!	!	!	!	!	!	!	!	!	!	!LO:TX:a:t=P:problem=mixed beam	!	!	!
8BB\	.	.	.	.	.	.	.	.	.	8b/	.	.	.
8BB\	.	.	.	.	.	.	.	.	.	8d/	.	.	.
8B\J	x	.	.	.	.	.	.	.	.	8ff\J	.	.	.
=67	=67	=67-	=67-	=67	=67	=67	=67	=67	=67	=67	=67	=67	=67
4c\	.	0r	0r	1ryy	.	1ryy	.	1ryy	.	8ee\L	.	1ryy	1ryy
.	.	.	.	.	.	.	.	.	.	8gg\	.	.	.
8r	.	.	.	.	.	.	.	.	.	8cc\	.	.	.
8C/	.	.	.	.	.	.	.	.	.	8ee\J	.	.	.
8F\L	5	.	.	.	.	.	.	.	.	16a\LL	.	.	.
.	.	.	.	.	.	.	.	.	.	16b\	.	.	.
!LO:TX:a:t=P:problem=mixed beam	!	!	!	!	!	!	!	!	!	!	!	!	!
8FF/	.	.	.	.	.	.	.	.	.	16cc\	.	.	.
.	.	.	.	.	.	.	.	.	.	16b\JJ	.	.	.
8FF/	.	.	.	.	.	.	.	.	.	16a\LL	.	.	.
.	.	.	.	.	.	.	.	.	.	16cc\	.	.	.
8F\J	.	.	.	.	.	.	.	.	.	16b\	.	.	.
.	.	.	.	.	.	.	.	.	.	16cc\JJ	.	.	.
!	!	!	!	!	!	!	!	!	!	!LO:LB:g=original	!	!	!
=68	=68	=68	=68	=68	=68	=68	=68	=68	=68	=68	=68	=68	=68
4BB/	10	.	.	1ryy	.	1ryy	.	1ryy	.	8dd\L	.	1ryy	1ryy
.	.	.	.	.	.	.	.	.	.	8ff\	.	.	.
8r	.	.	.	.	.	.	.	.	.	8b\	.	.	.
8BB/	.	.	.	.	.	.	.	.	.	8dd\J	.	.	.
8E\L	#	.	.	.	.	.	.	.	.	16g#X\LL	.	.	.
.	.	.	.	.	.	.	.	.	.	16a\	.	.	.
!LO:TX:a:t=P:problem=mixed beam	!	!	!	!	!	!	!	!	!	!	!	!	!
8EE/	.	.	.	.	.	.	.	.	.	16b\	.	.	.
.	.	.	.	.	.	.	.	.	.	16a\JJ	.	.	.
8EE/	.	.	.	.	.	.	.	.	.	16g#\LL	.	.	.
.	.	.	.	.	.	.	.	.	.	16b\	.	.	.
8E\J	.	.	.	.	.	.	.	.	.	16a\	.	.	.
.	.	.	.	.	.	.	.	.	.	16b\JJ	.	.	.
=69	=69	=69-	=69	=69	=69	=69	=69	=69	=69	=69	=69	=69	=69
4AA/	#	4r	4r	1ryy	.	1ryy	.	1ryy	.	8cc#X\L	.	1ryy	1ryy
.	.	.	.	.	.	.	.	.	.	8ee\	.	.	.
8r	.	8r	8r	.	.	.	.	.	.	8a\	.	.	.
8AA/	#	8cc#X\	8ee\	.	.	.	.	.	.	8cc#\J	.	.	.
4D\	n	4a/	16ff\LL	.	.	.	.	.	.	16dd\LL	.	.	.
.	.	.	16gg\	.	.	.	.	.	.	16ee\	.	.	.
.	.	.	16aa\	.	.	.	.	.	.	16ff\	.	.	.
.	.	.	16gg\JJ	.	.	.	.	.	.	16ee\JJ	.	.	.
4r	.	8r	16ff\LL	.	.	.	.	.	.	16dd\LL	.	.	.
.	.	.	16ee\	.	.	.	.	.	.	16cc#\JJ	.	.	.
.	.	8A/	16dd\	.	.	.	.	.	.	(16b\LL	-ri-	.	.
.	.	.	16cc\JJ	.	.	.	.	.	.	16a\JJ)	.	.	.
!LO:LB:g=original	!	!	!	!	!	!	!	!	!	!	!	!	!
=70	=70	=70	=70	=70	=70	=70	=70	=70	=70	=70	=70	=70	=70
4D\	6 #4 2	4e/	4b/	1ryy	.	1ryy	.	1ryy	.	4g#X/	-a	1ryy	1ryy
8r	.	8r	8r	.	.	.	.	.	.	4r	.	.	.
8E\	#	8e/	8e/	.	.	.	.	.	.	.	.	.	.
8A\L	n	8a/L	8a/L	.	.	.	.	.	.	8ee\	glo-	.	.
8C\	6	8c/	8c/	.	.	.	.	.	.	16dd\	-ri-	.	.
.	.	.	.	.	.	.	.	.	.	16cc,<\	-a	.	.
8D\	6	8d/	8d/	.	.	.	.	.	.	8.bt\	glo-	.	.
8E\J	#	8e/J	8e/J	.	.	.	.	.	.	.	.	.	.
.	.	.	.	.	.	.	.	.	.	16a\	-ri-	.	.
=71	=71	=71	=71	=71	=71	=71	=71	=71	=71	=71	=71	=71	=71
!LO:TX:a:t=P:problem=mixed beam	!	!	!	!	!	!	!	!	!	!	!	!	!
8A\L	.	4A/	4A/	1ryy	.	1ryy	.	1ryy	.	8a\	-a	1ryy	1ryy
8AA/	.	.	.	.	.	.	.	.	.	8r	.	.	.
8AA/	.	8r	8r	.	.	.	.	.	.	4r	.	.	.
8A\J	.	8cc\	8ee\	.	.	.	.	.	.	.	.	.	.
8G#X\L	7_ 5_	4dd\	4ff\	.	.	.	.	.	.	2r	.	.	.
8E\	.	.	.	.	.	.	.	.	.	.	.	.	.
8E\	.	8r	8r	.	.	.	.	.	.	.	.	.	.
8G#\J	x	8dd\	8ff\	.	.	.	.	.	.	.	.	.	.
=72	=72	=72	=72	=72	=72	=72	=72	=72	=72	=72	=72	=72	=72
4A\	.	8cc\L	8ee\L	1ryy	.	1ryy	.	1ryy	.	00r	.	1ryy	1ryy
!	!	!LO:TX:a:t=P:problem=mixed beam	!LO:TX:a:t=P:problem=mixed beam	!	!	!	!	!	!	!	!	!	!
.	.	8c/	8e/	.	.	.	.	.	.	.	.	.	.
8r	.	8c/	8e/	.	.	.	.	.	.	.	.	.	.
8A\	.	8cc\J	8ee\J	.	.	.	.	.	.	.	.	.	.
4D\	6 5	8b\L	8dd\L	.	.	.	.	.	.	.	.	.	.
!	!	!LO:TX:a:t=P:problem=mixed beam	!LO:TX:a:t=P:problem=mixed beam	!	!	!	!	!	!	!	!	!	!
.	.	8B/	8d/	.	.	.	.	.	.	.	.	.	.
8r	.	8B/	8d/	.	.	.	.	.	.	.	.	.	.
8E\	7 #	8b\J	8dd\J	.	.	.	.	.	.	.	.	.	.
!	!	!LO:LB:g=original	!	!	!	!	!	!	!	!	!	!	!
=73	=73	=73	=73	=73	=73	=73	=73	=73	=73	=73	=73	=73	=73
!LO:TX:a:t=P:problem=mixed beam	!	!	!	!	!	!	!	!	!	!	!	!	!
8A\L	.	4a/	4cc\	1ryy	.	1ryy	.	1ryy	.	.	.	1ryy	1ryy
8AA/	.	.	.	.	.	.	.	.	.	.	.	.	.
8AA/	.	8r	8r	.	.	.	.	.	.	.	.	.	.
!	!	!	!LO:SIC:o:s:=:v:nieczytelna notatka	!	!	!	!	!	!	!	!	!	!
!	!	!	!LO:PB:g=original	!	!	!	!	!	!	!	!	!	!
8A\J	.	8cc\	8ee\	.	.	.	.	.	.	.	.	.	.
4D/	.	8dd\L	8ff\L	.	.	.	.	.	.	.	.	.	.
!	!	!LO:TX:a:t=P:problem=mixed beam	!LO:TX:a:t=P:problem=mixed beam	!	!	!	!	!	!	!	!	!	!
.	.	8d/	8f/	.	.	.	.	.	.	.	.	.	.
8r	.	8d/	8f/	.	.	.	.	.	.	.	.	.	.
8D/	.	8dd\J	8ff\J	.	.	.	.	.	.	.	.	.	.
=74	=74	=74	=74	=74	=74	=74	=74	=74	=74	=74	=74	=74	=74
8G\L	.	4b/	4dd\	1ryy	.	1ryy	.	1ryy	.	.	.	1ryy	1ryy
!LO:TX:a:t=P:problem=mixed beam	!	!	!	!	!	!	!	!	!	!	!	!	!
8GG/	.	.	.	.	.	.	.	.	.	.	.	.	.
8GG\	.	8r	8r	.	.	.	.	.	.	.	.	.	.
8G\J	.	8b/	8dd\	.	.	.	.	.	.	.	.	.	.
4C/	.	8cc\L	8ee\L	.	.	.	.	.	.	.	.	.	.
!	!	!LO:TX:a:t=P:problem=mixed beam	!LO:TX:a:t=P:problem=mixed beam	!	!	!	!	!	!	!	!	!	!
.	.	8c/	8e/	.	.	.	.	.	.	.	.	.	.
8r	.	8c/	8e/	.	.	.	.	.	.	.	.	.	.
8C/	.	8cc\J	8ee\J	.	.	.	.	.	.	.	.	.	.
=75	=75	=75	=75	=75	=75	=75	=75	=75	=75	=75	=75	=75	=75
8F\L	.	4a/	4cc\	1ryy	.	1ryy	.	1ryy	.	.	.	1ryy	1ryy
!LO:TX:a:t=P:problem=mixed beam	!	!	!	!	!	!	!	!	!	!	!	!	!
8FF/	.	.	.	.	.	.	.	.	.	.	.	.	.
8FF/	.	8r	8r	.	.	.	.	.	.	.	.	.	.
8F\J	.	8a/	8cc\	.	.	.	.	.	.	.	.	.	.
4BB/	.	8b/L	8dd\L	.	.	.	.	.	.	.	.	.	.
!	!	!	!LO:TX:a:t=P:problem=mixed beam	!	!	!	!	!	!	!	!	!	!
.	.	8B/	8d/	.	.	.	.	.	.	.	.	.	.
8r	.	8B/	8d/	.	.	.	.	.	.	.	.	.	.
8BB/	.	8b/J	8dd\J	.	.	.	.	.	.	.	.	.	.
=76	=76	=76	=76	=76	=76	=76	=76	=76	=76	=76	=76	=76	=76
!LO:TX:a:t=P:problem=mixed beam	!	!	!	!	!	!	!	!	!	!	!	!	!
8E\L	#_	4g#X/	4b/	1ryy	.	1ryy	.	1ryy	.	00r	.	1ryy	1ryy
8EE/	.	.	.	.	.	.	.	.	.	.	.	.	.
8EE/	.	8r	8r	.	.	.	.	.	.	.	.	.	.
8E\J	X	8g#/	8b/	.	.	.	.	.	.	.	.	.	.
!LO:LB:g=original	!	!	!	!	!	!	!	!	!	!	!	!	!
4AA/	.	8cc\L	8aa\L	.	.	.	.	.	.	.	.	.	.
!	!	!LO:TX:a:t=P:problem=mixed beam	!LO:TX:a:t=P:problem=mixed beam	!	!	!	!	!	!	!	!	!	!
.	.	8c/	8a/	.	.	.	.	.	.	.	.	.	.
8r	.	8c/	8a/	.	.	.	.	.	.	.	.	.	.
8AA/	.	8cc\J	8aa\J	.	.	.	.	.	.	.	.	.	.
=77	=77	=77	=77	=77	=77	=77	=77	=77	=77	=77	=77	=77	=77
4D\	.	8dd\L	8ff\L	1ryy	.	1ryy	.	1ryy	.	.	.	1ryy	1ryy
.	.	16ff\L	16aa\L	.	.	.	.	.	.	.	.	.	.
.	.	16b\JJ	16dd\JJ	.	.	.	.	.	.	.	.	.	.
8r	.	8b\L	8dd\L	.	.	.	.	.	.	.	.	.	.
!	!	!LO:TX:a:t=P:problem=mixed beam	!	!	!	!	!	!	!	!	!	!	!
8D\	6	16dd\L	16ff\L	.	.	.	.	.	.	.	.	.	.
.	.	16d/JJ	16b\JJ	.	.	.	.	.	.	.	.	.	.
!LO:TX:a:t=P:problem=mixed beam	!	!	!	!	!	!	!	!	!	!	!	!	!
8E\L	#	8g#X/L	8b\L	.	.	.	.	.	.	.	.	.	.
8EE/	.	16b/L	16dd\L	.	.	.	.	.	.	.	.	.	.
.	.	16e/JJ	16g#X\JJ	.	.	.	.	.	.	.	.	.	.
8EE/	.	8e/L	8g#/L	.	.	.	.	.	.	.	.	.	.
8E\J	.	8b/J	16b/L	.	.	.	.	.	.	.	.	.	.
.	.	.	16e/JJ	.	.	.	.	.	.	.	.	.	.
=78	=78	=78	=78	=78	=78	=78	=78	=78	=78	=78	=78	=78	=78
8A\L	.	8cc\L	8ee\L	1ryy	.	1ryy	.	1ryy	.	.	.	1ryy	1ryy
!LO:TX:a:t=P:problem=mixed beam	!	!	!	!	!	!	!	!	!	!	!	!	!
8D\	6	16b\L	16dd\L	.	.	.	.	.	.	.	.	.	.
.	5	16a\JJ	16cc\JJ	.	.	.	.	.	.	.	.	.	.
8E\	4	8a/L	4bt/	.	.	.	.	.	.	.	.	.	.
8EE/J	#	8g/J	.	.	.	.	.	.	.	.	.	.	.
!	!	!	!LO:LB:g=original	!	!	!	!	!	!	!	!	!	!
8AA/L	.	4a/	4a/	.	.	.	.	.	.	.	.	.	.
8F\	.	.	.	.	.	.	.	.	.	.	.	.	.
!LO:TX:a:t=P:problem=mixed beam	!	!	!	!	!	!	!	!	!	!	!	!	!
8D\	5	8A/L	8c/L	.	.	.	.	.	.	.	.	.	.
8E\J	#	8G#X/J	8B/J	.	.	.	.	.	.	.	.	.	.
!	!	!LO:LB:g=original	!	!	!	!	!	!	!	!	!	!	!
=79	=79	=79	=79	=79	=79	=79	=79	=79	=79	=79	=79	=79	=79
4AA/	.	4A;/	4A/	1ryy	.	1ryy	.	1ryy	.	.	.	1ryy	1ryy
4r	.	4r	4r	.	.	.	.	.	.	.	.	.	.
2r	.	2r	2r	.	.	.	.	.	.	.	.	.	.
*	*	*	*	*	*	*	*	*	*	*M4/4	*	*	*
*	*	*	*	*	*	*	*	*	*	*met(c|)	*	*	*
!	!	!	!	!LO:LB:g=original	!	!LO:LB:g=original	!	!	!	!LO:LB:g=original	!	!	!
=80||	=80||	=80||	=80||	=80||	=80||	=80||	=80||	=80||	=80||	=80||	=80||	=80||	=80||
*	*	*M4/4	*M4/4	*	*	*M4/4	*	*M4/4	*	*M4/4	*	*	*
*	*	*met(c|)	*met(c|)	*	*	*met(c|)	*	*met(c|)	*	*met(c|)	*	*	*
!	!	!	!	!LO:TX:a:t=Tutti	!	!	!	!	!	!	!	!	!
!LO:TX:a:B:t=Presto	!	!LO:TX:b:t=Sicut erat.	!LO:TX:b:t=Sicut erat.	!	!	!	!	!	!	!	!	!	!
!LO:TX:b:t=Sicut erat	!	!LO:TX:a:B:t=Presto	!LO:TX:a:B:t=Presto	!LO:TX:a:B:t=Presto	!	!	!	!LO:TX:a:B:t=Presto	!	!LO:TX:a:B:t=Presto	!	!	!
4C`/	.	0r	00r	4C/	ſi-	1r	.	0r	.	00r	.	1ryy	1ryy
4G`\	.	.	.	4G\	-cut	.	.	.	.	.	.	.	.
4E`\	.	.	.	4E\	e-	.	.	.	.	.	.	.	.
4BB`/	.	.	.	4BB/	-rat	.	.	.	.	.	.	.	.
=81	=81	=81	=81	=81	=81	=81-	=81	=81	=81	=81	=81	=81	=81
*^	*	*	*	*	*	*	*	*	*	*	*	*	*
4G/	8C\L	.	.	.	8C/	e-	4G/	ſi-	.	.	.	.	1ryy	1ryy
.	8D\	.	.	.	8D/	-rat	.	.	.	.	.	.	.	.
4c/	8E\	.	.	.	8E\	in	4c\	-cut	.	.	.	.	.	.
.	8F#X\J	.	.	.	8F#X\	prin-	.	.	.	.	.	.	.	.
4B/	8G\L	.	.	.	8G\	-ci-	4B-\	e-	.	.	.	.	.	.
.	16F#\L	.	.	.	(16F#\LL	-pi-	.	.	.	.	.	.	.	.
.	16E\JJ	.	.	.	16E\JJ)	.	.	.	.	.	.	.	.	.
4G#X/	8D\L	.	.	.	8D,</	-o	4F#X/	-rat	.	.	.	.	.	.
.	8C\J	.	.	.	8C/	et	.	.	.	.	.	.	.	.
=82	=82	=82	=82	=82	=82	=82	=82	=82	=82	=82	=82	=82	=82	=82
8G/L	8BB\L	.	1r	.	8BB/	nunc	8G/	e-	1r	.	.	.	1ryy	1ryy
8G/	8GG\J	.	.	.	8GG/	et	8G/	-rat	.	.	.	.	.	.
8A/	8D\L	.	.	.	(8D\L	ſem-	8A\	in	.	.	.	.	.	.
8B/J	8G\J	.	.	.	8G\J)	.	8B-\	prin-	.	.	.	.	.	.
!LO:LB:g=original	!	!	!	!	!	!	!	!	!	!	!	!	!	!
8c/L	4C\	.	.	.	4C/	-per	8c\	-ci-	.	.	.	.	.	.
16B/L	.	.	.	.	.	.	(16B-\LL	-pi-	.	.	.	.	.	.
16A/JJ	.	.	.	.	.	.	16A\JJ)	.	.	.	.	.	.	.
4G/	8BB\L	.	.	.	8BB/	ſem-	8G/	-o	.	.	.	.	.	.
.	8G\J	.	.	.	8G\	-per	8G/	et	.	.	.	.	.	.
!	!	!	!	!	!LO:LB:g=original	!	!	!	!	!	!	!	!	!
=83	=83	=83	=83-	=83	=83	=83	=83	=83	=83-	=83	=83	=83	=83	=83
8F\L	8A/L	.	2r	.	8F\	nunc	8A/	nunc	2r	.	.	.	1ryy	1ryy
8E\	8G/	.	.	.	8E\	et	8G/	et	.	.	.	.	.	.
8D\	8A/	.	.	.	(8D\L	ſem-	(8A\L	ſem-	.	.	.	.	.	.
8G\J	8B/J	.	.	.	8G\J)	.	8B-\J)	.	.	.	.	.	.	.
!	!	!	!	!	!	!	!	!	!LO:TX:a:t=Tut(ti)	!	!	!	!	!
8C/L	2ryy	8_	4c/	.	4C/	-per	4c,<\	-per	4c/	ſi-	.	.	.	.
8D/	.	.	.	.	.	.	.	.	.	.	.	.	.	.
8E/	.	6	4g/	.	8E\	ſi-	8G/	ſi-	4g\	-cut	.	.	.	.
8BB/J	.	6	.	.	8BB/	-cut	8d\	-cut	.	.	.	.	.	.
*v	*v	*	*	*	*	*	*	*	*	*	*	*	*	*
=84	=84	=84	=84	=84	=84	=84	=84	=84	=84	=84	=84	=84	=84
8C/L	.	4e/	2r	(8C/L	e-	4c\	e-	4e\	e-	2r	.	1ryy	1ryy
!LO:TX:a:t=P:problem=mixed beam	!	!	!	!	!	!	!	!	!	!	!	!	!
8E\	6	.	.	8E/J)	.	.	.	.	.	.	.	.	.
!	!	!	!	!LO:TX:a:t=P:problem=mixed beam	!	!	!	!	!	!	!	!	!
8G\	.	4B/	.	(8G\L	-rat	4d\	-rat	4B-/	-rat	.	.	.	.
8GG/J	.	.	.	8GG/J)	.	.	.	.	.	.	.	.	.
!	!	!	!	!	!	!LO:LB:g=original	!	!LO:LB:g=original	!	!	!	!	!
!LO:TX:b:t=Tutti	!	!LO:TX:a:t=Tutti	!LO:TX:a:t=Tutti	!	!	!	!	!	!	!	!	!	!
8C/L	.	8c/L	4g/	8C/	in	8e\	e-	8c/	e-	4g/	ſi-	.	.
8BB/	.	8d/	.	8BB/	prin-	8d\	-rat	8d\	-rat	.	.	.	.
!	!	!	!	!	!	!	!	!	!	!LO:TX:a:t=Tutti	!	!	!
8AA/	7	8e/	4cc\	8AA/	-ci-	8c\	in-	8e\	in-	4cc\	-cut	.	.
8D/J	#	8f/J	.	8D/	-pi	8A/	-prin-	8f#X\	-prin-	.	.	.	.
=85	=85	=85	=85	=85	=85	=85	=85	=85	=85	=85	=85	=85	=85
8GG/L	.	8g/L	4b/	8GG/	-o	8.B-\	-ci-	8g\	-ci-	4b\	e-	1ryy	1ryy
8BB/	6	16f#X/L	.	8BB/	et	.	.	(16f#X\LL	-pi-	.	.	.	.
.	.	16e/JJ	.	.	.	16B-\	-pi-	16e\JJ)	.	.	.	.	.
8D/	#	8d/L	4f#X/	8D/	nunc	8A/	-o	8d\	-o	4f#X,</	-rat	.	.
8C/J	.	8d/J	.	8C/	et	8A/	et	8d\	et	.	.	.	.
8BB/L	6	8d/L	8g/L	8BB/	ſem-	8B-\	nunc	8d\	nunc	8g/	e-	.	.
8GG/J	.	8d/	8g/	8GG,</	-per	8B-\	et	8d\	et	8g/	-rat	.	.
8F\L	.	8c/	8a/	8F\	in	(8A/L	ſem-	(8c\L	ſem-	8a\	in-	.	.
8D\J	6	8d/J	8b/J	8D/	prin-	8F/J)	.	8d\J)	.	8b\	-prin-	.	.
!	!	!	!	!LO:LB:g=original	!	!	!	!	!	!	!	!	!
=86	=86	=86	=86	=86	=86	=86	=86	=86	=86	=86	=86	=86	=86
8C/L	.	4e/	8cc\L	8C/	-ci-	4G/	-per	4e,<\	-per	8cc\	-ci-	1ryy	1ryy
8E/J	.	.	16b\L	8E\	-pi-	.	.	.	.	(16b\LL	-pi-	.	.
.	.	.	16a\JJ	.	.	.	.	.	.	16a\JJ)	.	.	.
!LO:TX:a:t=P:problem=mixed beam	!	!	!	!	!	!	!	!	!	!	!	!	!
8G\L	.	8d/L	8g/L	8G,<\	-o	8B-\	ſem-	8d\	ſem-	8g/	-o	.	.
8C/J	.	8e/J	8g/J	8C/	et	8c\	-per	8e\	-per	8g/	et	.	.
8F\L	.	8f/L	8a/L	8F\	nunc	8A/	nunc	8f\	nunc	8a\	nunc	.	.
8E\	6	8g/	8g/	8E\	et	8c\	et	8g\	et	8g/	et	.	.
8D\	7	8f/	8a/	(8D\L	ſem-	(8A/L	ſem-	4f\	ſem-	(8a\L	ſem-	.	.
8G\J	3	8d/J	8b/J	8G\J)	.	8G/J)	.	.	.	8b\J)	.	.	.
=87	=87	=87	=87	=87	=87	=87	=87	=87	=87	=87	=87	=87	=87
!	!	!LO:TX:a:t=P:problem=mixed beam	!	!	!	!	!	!	!	!	!	!	!
8C/L	.	16e/LL	16cc\LL	4C,</	-per	4G/	-per	8e,<\	-per	4cc,<\	-per	1ryy	1ryy
.	.	16gg\	16gg\	.	.	.	.	.	.	.	.	.	.
8D/	.	16gg\	16gg\	.	.	.	.	4g\	et	.	.	.	.
.	.	16gg\JJ	16gg\JJ	.	.	.	.	.	.	.	.	.	.
8E/	.	16gg\LL	16gg\LL	8E\	et	8e\	et	.	.	8cc\	et	.	.
.	.	16gg\	16gg\	.	.	.	.	.	.	.	.	.	.
8F/J	.	16aa\	16aa\	8F\	in	8c\	in	8a\	in	8ff\	in	.	.
.	.	16aa\JJ	16aa\JJ	.	.	.	.	.	.	.	.	.	.
8G\L	.	16gg\LL	16gg\LL	8G\	ſae-	8B-\	ſae-	8g\	ſae-	8dd\	ſae-	.	.
.	.	16gg\	16gg\	.	.	.	.	.	.	.	.	.	.
!	!	!	!	!	!	!LO:LB:g=original	!	!	!	!	!	!	!
8A\	.	16gg\	16gg\	16G\	-cu-	16B-\	-cu-	16g\	-cu-	16dd\	-cu-	.	.
.	.	16gg\JJ	16gg\JJ	16A\	-la	16c\	-la	16f\	-la	16cc\	-la	.	.
!	!	!LO:LB:g=original	!	!	!	!	!	!LO:LB:g=original	!	!	!	!	!
8B\	.	16gg\LL	16gg\LL	8B\	ſae-	8d\	ſae-	8g\	ſae-	8b\	ſae-	.	.
.	.	16gg\	16gg\	.	.	.	.	.	.	.	.	.	.
8G\J	.	16gg\	16gg\	8G\	-cu-	8B-\	-cu-	8g\	-cu-	8dd\	-cu	.	.
.	.	16gg\JJ	16gg\JJ	.	.	.	.	.	.	.	.	.	.
!LO:LB:g=original	!	!	!LO:LB:g=original	!	!	!	!	!	!	!LO:LB:g=original	!	!	!
=88	=88	=88	=88	=88	=88	=88	=88	=88	=88	=88	=88	=88	=88
!	!	!LO:TX:a:t=P:problem=mixed beam	!	!	!	!	!	!	!	!	!	!	!
8c\L	.	16gg\LL	16gg\LL	8c\	-lo-	8c\	-lo-	8g\	-lo-	8ee\	-lo-	1ryy	1ryy
!	!	!	!LO:TX:a:t=P:problem=mixed beam	!	!	!	!	!	!	!	!	!	!
.	.	16g/	16g/	.	.	.	.	.	.	.	.	.	.
8B\	6	16g/	16g/	8B\	-rum	8d\	-rum	8g\	-rum	8dd\	-rum	.	.
.	.	16g/JJ	16g/JJ	.	.	.	.	.	.	.	.	.	.
8c\	.	16g/LL	16g/LL	8c\	ſae-	8c\	ſae-	8g\	ſae-	8ee\	ſae-	.	.
.	.	16g/	16g/	.	.	.	.	.	.	.	.	.	.
8B\J	6	16g/	16g/	8B\	-cu-	8d\	-cu-	8g\	-cu-	8dd\	-cu-	.	.
.	.	16g/JJ	16g/JJ	.	.	.	.	.	.	.	.	.	.
!	!	!LO:TX:a:t=P:problem=mixed beam	!LO:TX:a:t=P:problem=mixed beam	!	!	!	!	!	!	!	!	!	!
8c\L	.	16g/LL	16g/LL	8c\	-lo-	8c\	-lo-	8g\	-lo-	8ee\	-lo-	.	.
.	.	16gg\	16gg\	.	.	.	.	.	.	.	.	.	.
!	!	!	!	!LO:LB:g=original	!	!	!	!	!	!	!	!	!
!LO:TX:a:t=P:problem=mixed beam	!	!	!	!	!	!	!	!	!	!	!	!	!
8B\	6	16gg\	16gg\	8B\	-rum	8d\	-rum	8g\	-rum	8dd\	-rum	.	.
.	.	16gg\JJ	16gg\JJ	.	.	.	.	.	.	.	.	.	.
8A\	7	16gg\LL	16gg\LL	8A\L	a-	8A/	a-	(8g\L	a-	4cc\	a-	.	.
.	.	16gg\	16gg\	.	.	.	.	.	.	.	.	.	.
!	!	!LO:SIC:o:s:=:v:krzyżyk nad dźwiękiem	!	!	!	!	!	!	!	!	!	!	!
8D/J	#	16ff#X\	16ff#X\	8D\J	.	8A/	-men	8f#X\J)	.	.	.	.	.
.	.	16ff#\JJ	16ff#\JJ	.	.	.	.	.	.	.	.	.	.
=89	=89	=89	=89	=89	=89	=89	=89	=89	=89	=89	=89	=89	=89
4G\	.	8gg\L	8gg\L	8G\	-men	4G/	ſi-	4g,<\	-men	4b,<\	-men	1ryy	1ryy
!	!	!LO:TX:a:t=P:problem=mixed beam	!LO:TX:a:t=P:problem=mixed beam	!	!	!	!	!	!	!	!	!	!
.	.	8g/	8b/	8r	.	.	.	.	.	.	.	.	.
*clefC4	*	*	*	*	*	*	*	*	*	*	*	*	*
4d\	#	8f#X/	8a/	4r	.	4d\	-cut	8f#X\	ſi-	8a\	ſi-	.	.
.	.	8f#/J	8a/J	.	.	.	.	8f#\	-cut	8a\	-cut	.	.
4B\	6	4g/	8b\L	2r	.	4B-\	e-	4g\	e-	8b\	e-	.	.
.	.	.	8cc\	.	.	.	.	.	.	8cc\	-rat	.	.
4F#X/	6	4a/	8dd\	.	.	4F#X/	-rat	4a\	-rat	8dd\	-e-	.	.
.	.	.	8a\J	.	.	.	.	.	.	8a\	-rat	.	.
=90	=90	=90	=90	=90-	=90	=90	=90	=90	=90	=90	=90	=90	=90
8G/L	.	4.g/	4.b/	1r	.	8G/	e-	4.g\	in	4.b\	in	1ryy	1ryy
8A/	.	.	.	.	.	8A/	-rat	.	.	.	.	.	.
8B/	6	.	.	.	.	8B-\	in	.	.	.	.	.	.
8c/J	5	8g/	8b/	.	.	8c\	prin-	8g\	prin-	8b\	prin-	.	.
8d\L	#	8.f#X/L	8.a/L	.	.	8d\	-ci-	8.f#X\	-ci-	8.a\	-ci-	.	.
16c\L	.	.	.	.	.	(16c\LL	-pi-	.	.	.	.	.	.
16B\JJ	.	16f#/K	16a/K	.	.	16B-\JJ)	.	16f#\	-pi-	16a\	-pi-	.	.
8A/L	6\	8f#/	8a/	.	.	8A/	-o	8f#\	-o	8a,<\	-o	.	.
8G/J	.	8g/J	8b/J	.	.	8G/	et	8g\	et	8b\	et	.	.
!	!	!	!	!	!	!LO:LB:g=original	!	!	!	!	!	!	!
=91	=91	=91	=91	=91-	=91	=91	=91	=91	=91	=91	=91	=91	=91
!LO:TX:a:t=P:problem=mixed beam	!	!	!	!	!	!	!	!	!	!	!	!	!
8A\L	.	8e/L	8cc\L	2r	.	8A/	nunc	8e\	nunc	8cc\	nunc	1ryy	1ryy
8c\	.	8g/	8cc\	.	.	8c\	et	8g\	et	8cc\	et	.	.
!	!	!	!	!	!	!	!	!LO:LB:g=original	!	!	!	!	!
8F/	.	8a/	8cc\	.	.	(8F/L	ſem-	(8a\L	ſem-	(8cc\L	ſem-	.	.
8G/J	.	8g/J	8b\J	.	.	8G/J)	.	8g\J)	.	8b\J)	.	.	.
*clefF4	*	*	*	*	*	*	*	*	*	*	*	*	*
4C/	.	16g\LL	16cc\LL	4C/	ſi-	4c\	-per	8g\	-per	8cc\	-per	.	.
.	.	16cc\	16ee\	.	.	.	.	.	.	.	.	.	.
!	!	!	!	!	!	!	!	!	!	!LO:PB:g=original	!	!	!
.	.	16cc\	16ee\	.	.	.	.	4g\	ſi-	4cc\	ſi-	.	.
.	.	16cc\JJ	16ee\JJ	.	.	.	.	.	.	.	.	.	.
4G\	4	16cc\LL	16dd\LL	4G\	-cut	8d\	ſi-	.	.	.	.	.	.
.	.	16cc\	16dd\	.	.	.	.	.	.	.	.	.	.
.	3	16b\	16dd\	.	.	8d\	-cut	8g\	-cut	8b,<\	-cut	.	.
.	.	16b\JJ	16dd\JJ	.	.	.	.	.	.	.	.	.	.
!	!	!LO:TX:b:t=Verte Cito	!	!	!	!	!	!	!	!	!	!	!
!	!	!LO:PB:g=original	!	!	!	!	!	!	!	!	!	!	!
=92	=92	=92	=92	=92	=92	=92	=92	=92	=92	=92	=92	=92	=92
4E\	6	16cc\LL	16cc\LL	4E\	e-	8e\	e-	8g\	e-	4cc\	e-	1ryy	1ryy
.	.	16gg\	16gg\	.	.	.	.	.	.	.	.	.	.
.	.	16gg\	16gg\	.	.	8e\	-rat	8g\	-rat	.	.	.	.
.	.	16gg\JJ	16gg\JJ	.	.	.	.	.	.	.	.	.	.
!	!	!	!LO:LB:g=original	!	!	!	!	!	!	!	!	!	!
4BB/	6	16gg\LL	16gg\LL	4BB/	-rat	8d\	e-	8g\	e-	4dd\	-rat	.	.
.	.	16gg\	16gg\	.	.	.	.	.	.	.	.	.	.
.	.	16gg\	16gg\	.	.	8d\	-rat	8g\	-rat	.	.	.	.
.	.	16gg\JJ	16gg\JJ	.	.	.	.	.	.	.	.	.	.
8C\L	.	16gg\LL	16gg\LL	8C/	e-	4.c\	in	4.g\	in	4g/	in	.	.
.	.	16gg\	16gg\	.	.	.	.	.	.	.	.	.	.
8D\	.	16gg\	16gg\	8D/	-rat	.	.	.	.	.	.	.	.
.	.	16gg\JJ	16gg\JJ	.	.	.	.	.	.	.	.	.	.
8E\	.	16gg\LL	16gg\LL	8E\	in	.	.	.	.	4cc\	prin-	.	.
.	.	16gg\	16gg\	.	.	.	.	.	.	.	.	.	.
8F#X\J	.	16aa\	16aa\	8F#X\	prin-	8d\	prin-	8a\	prin-	.	.	.	.
.	.	16aa\JJ	16aa\JJ	.	.	.	.	.	.	.	.	.	.
=93	=93	=93	=93	=93	=93	=93	=93	=93	=93	=93	=93	=93	=93
8G\L	.	16gg\LL	16gg\LL	8G\	-ci-	8.d\	-ci-	8.g\	-ci-	8.b\	-ci-	1ryy	1ryy
.	.	16gg\	16gg\	.	.	.	.	.	.	.	.	.	.
16F#X\L	.	16gg\	16gg\	(16F#X\LL	-pi-	.	.	.	.	.	.	.	.
16E\JJ	.	16gg\JJ	16gg\JJ	16E\JJ)	.	16d\	-pi-	16g\	-pi-	16b\	-pi-	.	.
8D/L	#	16ff#X\LL	16aa\LL	8D/	-o	8d\	-o	8a\	-o	8f#X,</	-o	.	.
.	.	16ff#\	16aa\	.	.	.	.	.	.	.	.	.	.
8C/J	.	16ff#\	16aa\	8C/	et	8d\	et	8a\	et	8f#/	et	.	.
.	.	16ff#\JJ	16aa\JJ	.	.	.	.	.	.	.	.	.	.
!LO:LB:g=original	!	!	!	!	!	!	!	!	!	!	!	!	!
8BB/L	6	16dd\LL	16gg\LL	8BB/	nunc	8d\	nunc	8g\	nunc	8g/	nunc	.	.
.	.	16dd\	16gg\	.	.	.	.	.	.	.	.	.	.
8GG/J	.	16dd\	16gg\	8GG/	et	8d\	et	8g\	et	8g/	et	.	.
.	.	16dd\JJ	16gg\JJ	.	.	.	.	.	.	.	.	.	.
!	!	!	!	!LO:LB:g=original	!	!	!	!	!	!	!	!	!
8D\L	7 -3	16dd\LL	16ff\LL	(8D\L	ſem	(8c\L	ſem-	8f\L	ſem-	(8a\L	ſem-	.	.
.	.	16dd\	16ff\	.	.	.	.	.	.	.	.	.	.
8G\J	3	16dd\	16gg\	8G\J)	.	8B-\J)	.	8g\J	.	8b\J)	.	.	.
.	.	16dd\JJ	16gg\JJ	.	.	.	.	.	.	.	.	.	.
=94	=94	=94	=94	=94	=94	=94	=94	=94	=94	=94	=94	=94	=94
8C/L	.	16ee\LL	16ee\LL	8C/	-per	8c,<\	-per	4g,<\	-per	8g,</	-per	1ryy	1ryy
.	.	16ee\	16ccc\	.	.	.	.	.	.	.	.	.	.
!	!	!	!	!	!	!LO:LB:g=original	!	!	!	!	!	!	!
8D/	.	16ee\	16ccc\	4C/	et	4c\	et	.	.	4ee\	et	.	.
.	.	16ee\JJ	16ccc\JJ	.	.	.	.	.	.	.	.	.	.
8E/	.	16ee\LL	16ccc\LL	.	.	.	.	8g\	et	.	.	.	.
.	.	16ee\	16ccc\	.	.	.	.	.	.	.	.	.	.
8C/J	.	16ee\	16ccc\	8C/	in	8c\	in	8g\	in	8ee\	in	.	.
.	.	16ee\JJ	16ccc\JJ	.	.	.	.	.	.	.	.	.	.
8F\L	.	16aa\LL	16ccc\LL	8F\	ſae-	8A/	ſae-	8a\	ſae-	8cc\	ſae-	.	.
.	.	16cc\	16cc\	.	.	.	.	.	.	.	.	.	.
8G\	.	16cc\	16cc\	16F\	-cu-	16A/	-cu-	16a\	-cu-	16cc\	-cu-	.	.
!	!	!	!	!	!	!	!	!LO:LB:g=original	!	!	!	!	!
.	.	16cc\JJ	16cc\JJ	16G\	-la	16B-\	-la	16g\	-la	16b\	-la	.	.
8A\	.	16cc\LL	16cc\LL	8A\	ſae-	8c\	ſae-	8f\	ſae-	8cc\	ſae-	.	.
.	.	16cc\	16cc\	.	.	.	.	.	.	.	.	.	.
8F\J	.	16cc\	16cc\	8F\	-cu-	8A/	-cu-	8a\	-cu-	8cc\	-cu-	.	.
.	.	16cc\JJ	16cc\JJ	.	.	.	.	.	.	.	.	.	.
!	!	!LO:LB:g=original	!	!	!	!	!	!	!	!	!	!	!
=95	=95	=95	=95	=95	=95	=95	=95	=95	=95	=95	=95	=95	=95
8E\L	6	16cc\LL	16cc\LL	8E\	-lo-	8c\	-lo-	8g\	-lo-	8cc\	-lo-	1ryy	1ryy
.	.	16aa\	16gg\	.	.	.	.	.	.	.	.	.	.
8D\	6	16gg\	16gg\	8D\	-rum	8B-\	-rum	8f\	-rum	8dd\	-rum	.	.
.	.	16gg\JJ	16gg\JJ	.	.	.	.	.	.	.	.	.	.
8E\	6	16gg\LL	16gg\LL	8E\	ſae-	8c\	ſae-	8g\	ſae-	8cc\	ſae-	.	.
.	.	16gg\	16gg\	.	.	.	.	.	.	.	.	.	.
8C\J	.	16gg\	16gg\	8C/	-cu-	8c\	-cu-	8g\	-cu-	8ee\	-cu-	.	.
.	.	16gg\JJ	16gg\JJ	.	.	.	.	.	.	.	.	.	.
!	!	!	!LO:LB:g=original	!	!	!	!	!	!	!	!	!	!
8F\L	.	16ff\LL	16aa\LL	8F\	-lo-	8A/	-lo-	8a\	-lo-	8cc\	-lo-	.	.
.	.	16ff\	16aa\	.	.	.	.	.	.	.	.	.	.
!LO:TX:a:t=P:problem=mixed beam	!	!	!	!	!	!	!	!	!	!	!	!	!
8D\	.	16ff\	16aa\	8D/	-rum	8d\	-rum	8a\	-rum	8dd\	-rum	.	.
.	.	16ff\JJ	16aa\JJ	.	.	.	.	.	.	.	.	.	.
!	!	!	!	!	!	!	!	!	!	!LO:LB:g=original	!	!	!
8G\	.	16dd\LL	16gg\LL	8G\	A-	(8c\L	a-	4g\	a-	4ddT\	a-	.	.
.	.	16dd\	16gg\	.	.	.	.	.	.	.	.	.	.
8GG/J	.	16dd\	16gg\	8GG/	-men	8B-\J)	.	.	.	.	.	.	.
.	.	16dd\JJ	16gg\JJ	.	.	.	.	.	.	.	.	.	.
=96	=96	=96	=96	=96	=96	=96	=96	=96	=96	=96	=96	=96	=96
4C/	.	16ee\LL	16gg\LL	4C/	A-	8c,<\	-men	4g\	-men	8cc,<\	-men	1ryy	1ryy
.	.	16gg\	16gg\	.	.	.	.	.	.	.	.	.	.
.	.	16gg\	16gg\	.	.	8c\	a-	.	.	8ee\	a-	.	.
.	.	16gg\JJ	16gg\JJ	.	.	.	.	.	.	.	.	.	.
4G\	.	16gg\LL	16gg\LL	4G\	-men	8B-\L	.	4r	.	8dd\L	.	.	.
.	.	16gg\	16gg\	.	.	.	.	.	.	.	.	.	.
.	.	16gg\	16gg\	.	.	16c\L	.	.	.	16ee\L	-men	.	.
.	.	16gg\JJ	16gg\JJ	.	.	16B-\JJ	.	.	.	16dd\JJ	.	.	.
4E\	6	16gg\LL	16gg\LL	4E\	A-	8c\L	.	4c/	a-	16cc\LL	a-	.	.
!	!	!LO:TX:a:t=P:problem=mixed beam	!LO:TX:a:t=P:problem=mixed beam	!	!	!	!	!	!	!	!	!	!
.	.	16g/	16g/	.	.	.	.	.	.	16dd\	.	.	.
.	.	16g/	16g/	.	.	8G\J	.	.	.	16b\	.	.	.
.	.	16g/JJ	16g/JJ	.	.	.	.	.	.	16cc\JJ	.	.	.
!	!	!	!	!	!	!LO:LB:g=original	!	!	!	!	!	!	!
4BB/	6	16g/LL	16g/LL	4BB/	.	8d\L	.	4g\	-men	16dd\LL	.	.	.
.	.	16g/	16g/	.	.	.	.	.	.	16ee\	.	.	.
.	.	16g/	16g/	.	.	16e\L	.	.	.	16cc\	.	.	.
.	.	16g/JJ	16g/JJ	.	.	16d\JJ	.	.	.	16dd\JJ	.	.	.
=97	=97	=97	=97	=97	=97	=97	=97	=97	=97	=97	=97	=97	=97
!	!	!LO:TX:a:t=P:problem=mixed beam	!LO:TX:a:t=P:problem=mixed beam	!	!	!	!	!	!	!	!	!	!
8C/L	.	16g/LL	16g/LL	8C/L	.	8c,<\	-men	(8g\L	a-	4.ee\	.	1ryy	1ryy
.	.	16gg\	16gg\	.	.	.	.	.	.	.	.	.	.
8D/	.	16gg\	16gg\	8D/	.	4c\	a-	8f\J)	.	.	.	.	.
.	.	16gg\JJ	16gg\JJ	.	.	.	.	.	.	.	.	.	.
8E/	.	16gg\LL	16ccc\LL	8E/	.	.	.	(8g\L	-men	.	.	.	.
.	.	16gg\	16ccc\	.	.	.	.	.	.	.	.	.	.
8F/J	.	16aa\	16ccc\	8F/J	.	8c\	-men	8a\J)	.	8dd,<\	-men	.	.
.	.	16aa\JJ	16ccc\JJ	.	.	.	.	.	.	.	.	.	.
8G\L	.	16gg\LL	16ee\LL	8G\L	.	8B-\	a-	8g\	a-	8dd\	a-	.	.
.	.	16gg\	16ccc\	.	.	.	.	.	.	.	.	.	.
8E\	6	16gg\	16ccc\	8E\	.	8e\	-men	8g\	-men	8cc\	-men	.	.
.	.	16gg\JJ	16ccc\JJ	.	.	.	.	.	.	.	.	.	.
8F\	6 5	16aa\LL	16ccc\LL	8F\	.	4d\	A-	(8a\L	A-	(8cc\L	a-	.	.
.	.	16aa\	16ccc\	.	.	.	.	.	.	.	.	.	.
8G\J	.	16gg\	16bb\	8G\J	.	.	.	8g\J)	.	8b\J)	.	.	.
.	.	16gg\JJ	16bb\JJ	.	.	.	.	.	.	.	.	.	.
=98	=98	=98	=98	=98	=98	=98	=98	=98	=98	=98	=98	=98	=98
4C;</	.	4ee;\	4ccc;\	4C;</	-men	4e;\	-men	4g;\	-men	4cc;\	-men	1ryy	1ryy
4r	.	4r	4r	4r	.	4r	.	4r	.	4r	.	.	.
2r	.	2r	2r	2r	.	2r	.	2r	.	2r	.	.	.
==	==	==	==	==	==	==	==	==	==	==	==	==	==
*-	*-	*-	*-	*-	*-	*-	*-	*-	*-	*-	*-	*-	*-
!!!system-decoration: [(s1,s2)][(s3,s4,s5,s6)][(s7,s8)]s9
!!!RDF**kern: > = above
!!!RDF**kern: < = below
!!!EED: Leszek Kubiak
!!!EST: 2020-11-26
!!!ENC: Tomasz Grochalski
!!!END: 2020-05-09
